!!!!SEGMENT: pl-wn--mus-iii-65-947-cim--024_sowinski-wojciech--swiety-wojciech-meczennik-no-22-arja-i-chor.krn
!!!cenid: 18xx:3617
!!!COM: Sowiński, Wojciech
!!!COM-rismid: pe30008543
!!!CDT:
!!!CNT:
!!!GTL: Święty Wojciech męczennik
!!!OTL: No. 22. Arja i chór
!!!PDT: 1877
!!!AGN:
!!!SMS-siglum: PL-Wn
!!!SMS-shelfmark: Mus.III.65.947 Cim.
!!!SMS-shelfwork: 024 G
!!!SMS-variant:
!!!SMS-altvar:
!!!NIFC-rismid:
!!!URL-scan: https://polona.pl/item/swiety-wojciech-meczennik-oratorjo-w-trzech-czesciach-dzielo-66-spiew-z-fortepianem,MTkzODI1Mzc/242/#item
!!!ONB-nifc: UWAGA: oratorium zawiera w źródle 28 numerów podzielonych na 30 plików (rozdzielenie w No. 6 - osobno Recitativo oraz Aria matki i No. 10 - osobno Recitativo, arja i chór oraz Sen). Polecam widok miniatur na Polonie. Uwaga co do obsady: prosimy umieszczać tylko partie występujące w danym numerze (nie całą obsadę oratorium)
**kern	**kern	**dynam	**kern	**dynam	**text	**kern	**text	**dynam	**kern	**text	**dynam	**kern	**text	**dynam	**kern	**text	**dynam
*part7	*part6	*part6	*part5	*part5	*part5	*part4	*part4	*part4	*part3	*part3	*part3	*part2	*part2	*part2	*part1	*part1	*part1
*staff7	*staff6	*	*staff5	*	*staff5	*staff4	*staff4	*	*staff3	*staff3	*	*staff2	*staff2	*	*staff1	*staff1	*
*I"Piano	*I"Piano	*	*I"Basso	*	*	*I"Tenore	*	*	*I"Alto	*	*	*I"Soprano	*	*	*I"Ś. WOJCIECH.	*	*
*I'pf	*I'pf	*	*I'B	*	*	*I'T	*	*	*I'A	*	*	*I'S	*	*	*I'V	*	*
*ICklav	*ICklav	*	*ICvox	*	*	*ICvox	*	*	*ICvox	*	*	*ICvox	*	*	*ICvox	*	*
*Ipiano	*Ipiano	*	*Ibass	*	*	*Itenor	*	*	*Ialto	*	*	*Isoprn	*	*	*Ivox	*	*
*clefF4	*clefG2	*	*clefF4	*	*	*clefF4	*	*	*clefG2	*	*	*clefG2	*	*	*clefF4	*	*
*k[b-e-]	*k[b-e-]	*	*k[b-e-]	*	*	*k[b-e-]	*	*	*k[b-e-]	*	*	*k[b-e-]	*	*	*k[b-e-]	*	*
*g:	*g:	*	*g:	*	*	*g:	*	*	*g:	*	*	*g:	*	*	*g:	*	*
*M3/4	*M3/4	*	*M3/4	*	*	*M3/4	*	*	*M3/4	*	*	*M3/4	*	*	*M3/4	*	*
=1	=1	=1	=1	=1	=1	=1	=1	=1	=1	=1	=1	=1	=1	=1	=1	=1	=1
*	*^	*	*	*	*	*	*	*	*	*	*	*	*	*	*	*	*
!LO:TX:a:B:i:t=Lento espressivo.	!	!	!	!	!	!	!	!	!	!	!	!	!	!	!	!LO:TX:a:B:i:t=Lento espressivo.	!	!
*Xtuplet	*	*Xtuplet	*	*	*	*	*	*	*	*	*	*	*	*	*	*	*	*
4GG\ 4D 4B-	4b-/ 4dd 4gg	2ryy	.	2.ryy	.	.	2.ryy	.	.	2.ryy	.	.	2.ryy	.	.	2.r	.	.
4r	4r	.	.	.	.	.	.	.	.	.	.	.	.	.	.	.	.	.
(24G\LL	4d/	(>24B-\LL	.	.	.	.	.	.	.	.	.	.	.	.	.	.	.	.
24F#X\	.	24A\	.	.	.	.	.	.	.	.	.	.	.	.	.	.	.	.
24G\	.	24B-\	.	.	.	.	.	.	.	.	.	.	.	.	.	.	.	.
24F#\	.	24A\	.	.	.	.	.	.	.	.	.	.	.	.	.	.	.	.
24G\	.	24B-\	.	.	.	.	.	.	.	.	.	.	.	.	.	.	.	.
24F#\JJ)	.	24A\JJ)	.	.	.	.	.	.	.	.	.	.	.	.	.	.	.	.
*tuplet	*	*tuplet	*	*	*	*	*	*	*	*	*	*	*	*	*	*	*	*
=2	=2	=2	=2	=2	=2	=2	=2	=2	=2	=2	=2	=2	=2	=2	=2	=2	=2	=2
4G\	4d/	4B-\	.	2.ryy	.	.	2.ryy	.	.	2.ryy	.	.	2.ryy	.	.	4r	.	.
4G\	4d/	4B-\	.	.	.	.	.	.	.	.	.	.	.	.	.	4r	.	.
4G\	4d/	4B-\	.	.	.	.	.	.	.	.	.	.	.	.	.	8r	.	.
.	.	.	.	.	.	.	.	.	.	.	.	.	.	.	.	8D\	Twą	.
=3	=3	=3	=3	=3	=3	=3	=3	=3	=3	=3	=3	=3	=3	=3	=3	=3	=3	=3
2GG/ 2G	2ryy	2d/ 2B-/	.	2.ryy	.	.	2.ryy	.	.	2.ryy	.	.	2.ryy	.	.	2.G\	wzgar-	.
(24G\LL	4d/	(>24B-\LL	.	.	.	.	.	.	.	.	.	.	.	.	.	.	.	.
24F#X\	.	24A\	.	.	.	.	.	.	.	.	.	.	.	.	.	.	.	.
24G\	.	24B-\	.	.	.	.	.	.	.	.	.	.	.	.	.	.	.	.
24F#\	.	24A\	.	.	.	.	.	.	.	.	.	.	.	.	.	.	.	.
24G\	.	24B-\	.	.	.	.	.	.	.	.	.	.	.	.	.	.	.	.
24F#\JJ)	.	24A\JJ)	.	.	.	.	.	.	.	.	.	.	.	.	.	.	.	.
=4	=4	=4	=4	=4	=4	=4	=4	=4	=4	=4	=4	=4	=4	=4	=4	=4	=4	=4
4G\	4d/	4B-\	.	2.ryy	.	.	2.ryy	.	.	2.ryy	.	.	2.ryy	.	.	4G\	-dę	.
4G\	4d/	4B-\	.	.	.	.	.	.	.	.	.	.	.	.	.	8r	.	.
.	.	.	.	.	.	.	.	.	.	.	.	.	.	.	.	(8D\	im	.
4G\	4d/	4B-\	.	.	.	.	.	.	.	.	.	.	.	.	.	8En\)	.	.
.	.	.	.	.	.	.	.	.	.	.	.	.	.	.	.	8F#X\	od-	.
!!LO:LB:g=original	!	!	!	!	!	!	!	!	!	!	!	!	!	!	!	!	!
=5	=5	=5	=5	=5	=5	=5	=5	=5	=5	=5	=5	=5	=5	=5	=5	=5	=5	=5
2GG/ 2G	2ryy	2d/ 2B-/	.	2.ryy	.	.	2.ryy	.	.	2.ryy	.	.	2.ryy	.	.	2.G\	-da-	.
(24G\LL	4d/	(>24B-\LL	.	.	.	.	.	.	.	.	.	.	.	.	.	.	.	.
24F#X\	.	24A\	.	.	.	.	.	.	.	.	.	.	.	.	.	.	.	.
24G\	.	24B-\	.	.	.	.	.	.	.	.	.	.	.	.	.	.	.	.
24F#\	.	24A\	.	.	.	.	.	.	.	.	.	.	.	.	.	.	.	.
24G\	.	24B-\	.	.	.	.	.	.	.	.	.	.	.	.	.	.	.	.
24F#\JJ)	.	24A\JJ)	.	.	.	.	.	.	.	.	.	.	.	.	.	.	.	.
*	*v	*v	*	*	*	*	*	*	*	*	*	*	*	*	*	*	*	*
=6	=6	=6	=6	=6	=6	=6	=6	=6	=6	=6	=6	=6	=6	=6	=6	=6	=6
4G\	4B-/ 4d	.	2.ryy	.	.	2.ryy	.	.	2.ryy	.	.	2.ryy	.	.	2G\	-ję	.
4G\	4B-/ 4d	.	.	.	.	.	.	.	.	.	.	.	.	.	.	.	.
4G\	4B-/ 4d	.	.	.	.	.	.	.	.	.	.	.	.	.	8G\L	twą	.
.	.	.	.	.	.	.	.	.	.	.	.	.	.	.	8A\J	.	.
=7	=7	=7	=7	=7	=7	=7	=7	=7	=7	=7	=7	=7	=7	=7	=7	=7	=7
*	*^	*	*	*	*	*	*	*	*	*	*	*	*	*	*	*	*
!	!	!	!LO:DY:b	!	!	!	!	!	!	!	!	!	!	!	!	!	!	!
2G\	2c#X/ 2en 2B-/	2ryy	sf	2.ryy	.	.	2.ryy	.	.	2.ryy	.	.	2.ryy	.	.	[2.B-^\	wzgar-	.
(24G\LL	4c#/ 4e	(>24B-\LL	.	.	.	.	.	.	.	.	.	.	.	.	.	.	.	.
24F#X\	.	24A\	.	.	.	.	.	.	.	.	.	.	.	.	.	.	.	.
24G\	.	24B-\	.	.	.	.	.	.	.	.	.	.	.	.	.	.	.	.
24F#\	.	24A\	.	.	.	.	.	.	.	.	.	.	.	.	.	.	.	.
24G\	.	24B-\	.	.	.	.	.	.	.	.	.	.	.	.	.	.	.	.
24F#\JJ)	.	24A\JJ)	.	.	.	.	.	.	.	.	.	.	.	.	.	.	.	.
*	*v	*v	*	*	*	*	*	*	*	*	*	*	*	*	*	*	*	*
=8	=8	=8	=8	=8	=8	=8	=8	=8	=8	=8	=8	=8	=8	=8	=8	=8	=8
4G\	4B-/ 4c#X 4en	.	2.ryy	.	.	2.ryy	.	.	2.ryy	.	.	2.ryy	.	.	4.B-\]	.	.
4G\	4B-/ 4c# 4e	.	.	.	.	.	.	.	.	.	.	.	.	.	.	.	.
.	.	.	.	.	.	.	.	.	.	.	.	.	.	.	8B-\	-dę	.
4G\	4B-/ 4c# 4e	.	.	.	.	.	.	.	.	.	.	.	.	.	8B-\	im	.
.	.	.	.	.	.	.	.	.	.	.	.	.	.	.	8B-\	od-	.
=9	=9	=9	=9	=9	=9	=9	=9	=9	=9	=9	=9	=9	=9	=9	=9	=9	=9
*	*^	*	*	*	*	*	*	*	*	*	*	*	*	*	*	*	*
2G\	2B-/ 2d	2ryy	.	2.ryy	.	.	2.ryy	.	.	2.ryy	.	.	2.ryy	.	.	2.G\	-da-	.
(24G\LL	4d/	(>24B-\LL	.	.	.	.	.	.	.	.	.	.	.	.	.	.	.	.
24F#X\	.	24A\	.	.	.	.	.	.	.	.	.	.	.	.	.	.	.	.
24G\	.	24B-\	.	.	.	.	.	.	.	.	.	.	.	.	.	.	.	.
24F#\	.	24A\	.	.	.	.	.	.	.	.	.	.	.	.	.	.	.	.
24G\	.	24B-\	.	.	.	.	.	.	.	.	.	.	.	.	.	.	.	.
24F#\JJ)	.	24A\JJ)	.	.	.	.	.	.	.	.	.	.	.	.	.	.	.	.
*	*v	*v	*	*	*	*	*	*	*	*	*	*	*	*	*	*	*	*
!!LO:LB:g=original	!	!	!	!	!	!	!	!	!	!	!	!	!	!	!	!
=10	=10	=10	=10	=10	=10	=10	=10	=10	=10	=10	=10	=10	=10	=10	=10	=10	=10
4G\	8B-/ 8d	.	2.ryy	.	.	2.ryy	.	.	2.ryy	.	.	2.ryy	.	.	4G\	-ję,	.
.	(8dd\L	.	.	.	.	.	.	.	.	.	.	.	.	.	.	.	.
4G\ 4B- 4d	8cc\	.	.	.	.	.	.	.	.	.	.	.	.	.	4r	.	.
.	8b-\	.	.	.	.	.	.	.	.	.	.	.	.	.	.	.	.
4G\ 4B- 4d	8a\	.	.	.	.	.	.	.	.	.	.	.	.	.	8r	.	.
!	!	!	!	!	!	!	!	!	!	!	!	!	!	!	!	!	!LO:DY:a
.	8g\J)	.	.	.	.	.	.	.	.	.	.	.	.	.	8G\	pra-	f
=11	=11	=11	=11	=11	=11	=11	=11	=11	=11	=11	=11	=11	=11	=11	=11	=11	=11
*^	*	*	*	*	*	*	*	*	*	*	*	*	*	*	*	*	*
*	*Xtuplet	*	*	*	*	*	*	*	*	*	*	*	*	*	*	*	*	*
!	!	!	!LO:DY:b	!	!	!	!	!	!	!	!	!	!	!	!	!	!	!
2D/ 2DD/	2ryy	2f#X/ 2dd	f	2.ryy	.	.	2.ryy	.	.	2.ryy	.	.	2.ryy	.	.	[2.d\	-we-	.
24A/LL	24F#X\LL	4d/	.	.	.	.	.	.	.	.	.	.	.	.	.	.	.	.
24G#X/	24En\	.	.	.	.	.	.	.	.	.	.	.	.	.	.	.	.	.
24A/	24F#\	.	.	.	.	.	.	.	.	.	.	.	.	.	.	.	.	.
24G#/	24E\	.	.	.	.	.	.	.	.	.	.	.	.	.	.	.	.	.
24A/	24F#\	.	.	.	.	.	.	.	.	.	.	.	.	.	.	.	.	.
24G#/JJ	24E\JJ	.	.	.	.	.	.	.	.	.	.	.	.	.	.	.	.	.
*v	*v	*	*	*	*	*	*	*	*	*	*	*	*	*	*	*	*	*
=12	=12	=12	=12	=12	=12	=12	=12	=12	=12	=12	=12	=12	=12	=12	=12	=12	=12
4D\ 4F#X	4A</ 4d	.	2.ryy	.	.	2.ryy	.	.	2.ryy	.	.	2.ryy	.	.	4.d\]	.	.
4D\ 4F#	8A</L 8d	.	.	.	.	.	.	.	.	.	.	.	.	.	.	.	.
.	8f#X/	.	.	.	.	.	.	.	.	.	.	.	.	.	8c\	-mu	.
4D\ 4F#X 4A 4d	8g/	.	.	.	.	.	.	.	.	.	.	.	.	.	8B-\	Bo-	.
.	8a/J	.	.	.	.	.	.	.	.	.	.	.	.	.	8A\	-gu	.
=13	=13	=13	=13	=13	=13	=13	=13	=13	=13	=13	=13	=13	=13	=13	=13	=13	=13
*	*^	*	*	*	*	*	*	*	*	*	*	*	*	*	*	*	*
*tuplet	*	*	*	*	*	*	*	*	*	*	*	*	*	*	*	*	*	*
2G\ 2B-	2d/ 2g	2ryy	.	2.ryy	.	.	2.ryy	.	.	2.ryy	.	.	2.ryy	.	.	(2.B-\	cześć	.
(24G\LL	4d/	(>24B-\LL	.	.	.	.	.	.	.	.	.	.	.	.	.	.	.	.
24F#X\	.	24A\	.	.	.	.	.	.	.	.	.	.	.	.	.	.	.	.
24G\	.	24B-\	.	.	.	.	.	.	.	.	.	.	.	.	.	.	.	.
24F#\	.	24A\	.	.	.	.	.	.	.	.	.	.	.	.	.	.	.	.
24G\	.	24B-\	.	.	.	.	.	.	.	.	.	.	.	.	.	.	.	.
24F#\JJ)	.	24A\JJ)	.	.	.	.	.	.	.	.	.	.	.	.	.	.	.	.
=14	=14	=14	=14	=14	=14	=14	=14	=14	=14	=14	=14	=14	=14	=14	=14	=14	=14	=14
4G\	4d/	4B-\	.	2.ryy	.	.	2.ryy	.	.	2.ryy	.	.	2.ryy	.	.	4G\)	.	.
4G\	4d/	4B-\	.	.	.	.	.	.	.	.	.	.	.	.	.	4r	.	.
!	!	!	!LO:HP:b	!	!	!	!	!	!	!	!	!	!	!	!	!	!	!
4G\	8B-/L 8b-	4ryy	<	.	.	.	.	.	.	.	.	.	.	.	.	(8B-\L	pra-	.
.	8c/J 8cc	.	.	.	.	.	.	.	.	.	.	.	.	.	.	8c\J)	.	.
*	*v	*v	*	*	*	*	*	*	*	*	*	*	*	*	*	*	*	*
!!LO:LB:g=original	!	!	!	!	!	!	!	!	!	!	!	!	!	!	!	!
=15	=15	=15	=15	=15	=15	=15	=15	=15	=15	=15	=15	=15	=15	=15	=15	=15	=15
*^	*	*	*	*	*	*	*	*	*	*	*	*	*	*	*	*	*
!	!	!	!	!	!	!	!	!	!	!	!	!	!	!	!	!	!	!LO:DY:a
4B-\ 2F\	4ryy	2d/ 2dd	[	2.ryy	.	.	2.ryy	.	.	2.ryy	.	.	2.ryy	.	.	2.d\	-we-	f
4B-\ 4F\	4ryy	.	.	.	.	.	.	.	.	.	.	.	.	.	.	.	.	.
(<24d/LL	4F\	(24f/LL	.	.	.	.	.	.	.	.	.	.	.	.	.	.	.	.
24c#X/	.	24en/	.	.	.	.	.	.	.	.	.	.	.	.	.	.	.	.
24d/	.	24f/	.	.	.	.	.	.	.	.	.	.	.	.	.	.	.	.
24c#/	.	24e/	.	.	.	.	.	.	.	.	.	.	.	.	.	.	.	.
24d/JJ)	.	24f/JJ)	.	.	.	.	.	.	.	.	.	.	.	.	.	.	.	.
24ryy	.	24ryy	.	.	.	.	.	.	.	.	.	.	.	.	.	.	.	.
*v	*v	*	*	*	*	*	*	*	*	*	*	*	*	*	*	*	*	*
=16	=16	=16	=16	=16	=16	=16	=16	=16	=16	=16	=16	=16	=16	=16	=16	=16	=16
4F\ 4A	4c/ 4f	.	2.ryy	.	.	2.ryy	.	.	2.ryy	.	.	2.ryy	.	.	4c\	-mu	.
!	!LO:TX:b:i:t=riten.	!	!	!	!	!	!	!	!	!	!	!	!	!	!	!	!
4F\ 4A	4c/ 4f	.	.	.	.	.	.	.	.	.	.	.	.	.	8r	.	.
.	.	.	.	.	.	.	.	.	.	.	.	.	.	.	(8F\L	Bo-	.
4F\ 4A	4c/ 4f	.	.	.	.	.	.	.	.	.	.	.	.	.	8d\J)	.	.
.	.	.	.	.	.	.	.	.	.	.	.	.	.	.	8c\	-gu	.
=17	=17	=17	=17	=17	=17	=17	=17	=17	=17	=17	=17	=17	=17	=17	=17	=17	=17
*	*^	*	*	*	*	*	*	*	*	*	*	*	*	*	*	*	*
4BB-\ 4F	2ryy	2d/ 2B-/	.	2.ryy	.	.	2.ryy	.	.	2.ryy	.	.	2.ryy	.	.	2.B-\	cześć!	.
4BB-\ 4F	.	.	.	.	.	.	.	.	.	.	.	.	.	.	.	.	.	.
4BB-\ 4F	8d/L	32B-\LLL	.	.	.	.	.	.	.	.	.	.	.	.	.	.	.	.
.	.	32A\	.	.	.	.	.	.	.	.	.	.	.	.	.	.	.	.
.	.	32B-\	.	.	.	.	.	.	.	.	.	.	.	.	.	.	.	.
.	.	32A\JJJ	.	.	.	.	.	.	.	.	.	.	.	.	.	.	.	.
.	(32B-/LL	8ryy	.	.	.	.	.	.	.	.	.	.	.	.	.	.	.	.
.	32c/	.	.	.	.	.	.	.	.	.	.	.	.	.	.	.	.	.
.	32d/	.	.	.	.	.	.	.	.	.	.	.	.	.	.	.	.	.
.	32c/JJJ)	.	.	.	.	.	.	.	.	.	.	.	.	.	.	.	.	.
*	*v	*v	*	*	*	*	*	*	*	*	*	*	*	*	*	*	*	*
=18	=18	=18	=18	=18	=18	=18	=18	=18	=18	=18	=18	=18	=18	=18	=18	=18	=18
4BB-\ 4D 4F	4B-/	.	2.ryy	.	.	2.ryy	.	.	2.ryy	.	.	2.ryy	.	.	2B-\	Ja	.
4BB-\ 4D 4F	4B-/	.	.	.	.	.	.	.	.	.	.	.	.	.	.	.	.
4BB-\ 4D 4F	4B-/	.	.	.	.	.	.	.	.	.	.	.	.	.	8.B-\	mo-	.
.	.	.	.	.	.	.	.	.	.	.	.	.	.	.	16B-\	-ją	.
=19	=19	=19	=19	=19	=19	=19	=19	=19	=19	=19	=19	=19	=19	=19	=19	=19	=19
*^	*^	*	*	*	*	*	*	*	*	*	*	*	*	*	*	*	*
*Xtuplet	*	*	*	*	*	*	*	*	*	*	*	*	*	*	*	*	*	*	*
2G\ 2BB-\	2ryy	2ryy	2e-/ 2B-/	.	2.ryy	.	.	2.ryy	.	.	2.ryy	.	.	2.ryy	.	.	2.e-\	krew	.
(<24G/LL	4BB-\	4e-/	(>24B-\LL	.	.	.	.	.	.	.	.	.	.	.	.	.	.	.	.
24F#X/	.	.	24A\	.	.	.	.	.	.	.	.	.	.	.	.	.	.	.	.
24G/	.	.	24B-\	.	.	.	.	.	.	.	.	.	.	.	.	.	.	.	.
24F#/	.	.	24A\	.	.	.	.	.	.	.	.	.	.	.	.	.	.	.	.
24G/	.	.	24B-\	.	.	.	.	.	.	.	.	.	.	.	.	.	.	.	.
24F#/JJ)	.	.	24A\JJ)	.	.	.	.	.	.	.	.	.	.	.	.	.	.	.	.
*tuplet	*	*	*	*	*	*	*	*	*	*	*	*	*	*	*	*	*	*	*
*v	*v	*	*	*	*	*	*	*	*	*	*	*	*	*	*	*	*	*	*
!!LO:LB:g=original	!	!	!	!	!	!	!	!	!	!	!	!	!	!	!	!	!
=20	=20	=20	=20	=20	=20	=20	=20	=20	=20	=20	=20	=20	=20	=20	=20	=20	=20	=20
4BB-\ 4E- 4G	8e-/L	4B-\	.	2.ryy	.	.	2.ryy	.	.	2.ryy	.	.	2.ryy	.	.	4E-\	ci	.
.	(<8B-/	.	.	.	.	.	.	.	.	.	.	.	.	.	.	.	.	.
!	!	!	!LO:HP:b	!	!	!	!	!	!	!	!	!	!	!	!	!	!	!
4BB-\ 4E- 4G	8e-/	2ryy	<	.	.	.	.	.	.	.	.	.	.	.	.	4r	.	.
.	8g/	.	.	.	.	.	.	.	.	.	.	.	.	.	.	.	.	.
4BB-\ 4E- 4G	8b-/	.	.	.	.	.	.	.	.	.	.	.	.	.	.	8r	.	.
.	8gg/J)	.	.	.	.	.	.	.	.	.	.	.	.	.	.	8B-\	od-	.
=21	=21	=21	=21	=21	=21	=21	=21	=21	=21	=21	=21	=21	=21	=21	=21	=21	=21	=21
4BB-\ 4B-	2ryy	2ff\ 2dd\	[	2.ryy	.	.	2.ryy	.	.	2.ryy	.	.	2.ryy	.	.	2.d\	-da-	.
4BB-\ 4F	.	.	.	.	.	.	.	.	.	.	.	.	.	.	.	.	.	.
4BB-\ 4F	4d/	(>24B-\LL	.	.	.	.	.	.	.	.	.	.	.	.	.	.	.	.
.	.	24A\	.	.	.	.	.	.	.	.	.	.	.	.	.	.	.	.
.	.	24B-\	.	.	.	.	.	.	.	.	.	.	.	.	.	.	.	.
.	.	24A\	.	.	.	.	.	.	.	.	.	.	.	.	.	.	.	.
.	.	24B-\	.	.	.	.	.	.	.	.	.	.	.	.	.	.	.	.
.	.	24A\JJ)	.	.	.	.	.	.	.	.	.	.	.	.	.	.	.	.
*	*v	*v	*	*	*	*	*	*	*	*	*	*	*	*	*	*	*	*
=22	=22	=22	=22	=22	=22	=22	=22	=22	=22	=22	=22	=22	=22	=22	=22	=22	=22
4BB-\ 4F	4B-/ 4d	.	2.ryy	.	.	2.ryy	.	.	2.ryy	.	.	2.ryy	.	.	4B-\	-ję	.
4BB-\ 4F	4B-/ 4d	.	.	.	.	.	.	.	.	.	.	.	.	.	4r	.	.
4BB-\ 4F	4B-/ 4d	.	.	.	.	.	.	.	.	.	.	.	.	.	4B-\	ja	.
=23	=23	=23	=23	=23	=23	=23	=23	=23	=23	=23	=23	=23	=23	=23	=23	=23	=23
*^	*^	*	*	*	*	*	*	*	*	*	*	*	*	*	*	*	*
2G\ 2BB-\	2ryy	2e-/ 2B-/	2ryy	.	2.ryy	.	.	2.ryy	.	.	2.ryy	.	.	2.ryy	.	.	2e-^\	mo-	.
(<24A-X/LL	4BB-\	4e-/	(>24B-\LL	.	.	.	.	.	.	.	.	.	.	.	.	.	(8B-\L	-ją	.
24G/	.	.	24A\	.	.	.	.	.	.	.	.	.	.	.	.	.	.	.	.
24A-/	.	.	24B-\	.	.	.	.	.	.	.	.	.	.	.	.	.	.	.	.
24G/	.	.	24A\	.	.	.	.	.	.	.	.	.	.	.	.	.	8G-X\J)	.	.
24A-/	.	.	24B-\	.	.	.	.	.	.	.	.	.	.	.	.	.	.	.	.
24G/JJ)	.	.	24A\JJ)	.	.	.	.	.	.	.	.	.	.	.	.	.	.	.	.
*v	*v	*	*	*	*	*	*	*	*	*	*	*	*	*	*	*	*	*	*
=24	=24	=24	=24	=24	=24	=24	=24	=24	=24	=24	=24	=24	=24	=24	=24	=24	=24	=24
!	!LO:TX:t=P:problem:mixed beam	!	!	!	!	!	!	!	!	!	!	!	!	!	!	!	!	!
4BB-\ 4G-X	8e-/L	4B-\	.	2.ryy	.	.	2.ryy	.	.	2.ryy	.	.	2.ryy	.	.	4.E-\	krew	.
.	8bb-\	.	.	.	.	.	.	.	.	.	.	.	.	.	.	.	.	.
4BB-\ 4E- 4G-	8gg-X\	2ryy	.	.	.	.	.	.	.	.	.	.	.	.	.	.	.	.
.	8ee-\	.	.	.	.	.	.	.	.	.	.	.	.	.	.	(8G\L	ci	.
4BB-\ 4E- 4G-	8b-\	.	.	.	.	.	.	.	.	.	.	.	.	.	.	8B-\J)	.	.
.	8g-X\J	.	.	.	.	.	.	.	.	.	.	.	.	.	.	8e-\	od-	.
*	*v	*v	*	*	*	*	*	*	*	*	*	*	*	*	*	*	*	*
!!LO:LB:g=original	!	!	!	!	!	!	!	!	!	!	!	!	!	!	!	!
!!LO:PB:g=original	!	!	!	!	!	!	!	!	!	!	!	!	!	!	!	!
=25	=25	=25	=25	=25	=25	=25	=25	=25	=25	=25	=25	=25	=25	=25	=25	=25	=25
*Xtuplet	*Xtuplet	*	*	*	*	*	*	*	*	*	*	*	*	*	*	*	*
4BB-\ 4B-	2d/ 2f	.	2.ryy	.	.	2.ryy	.	.	2.ryy	.	.	2.ryy	.	.	2.d^\	-da-	.
4BB-\ 4F	.	.	.	.	.	.	.	.	.	.	.	.	.	.	.	.	.
4BB-\ 4D 4F	(24B-/LL	.	.	.	.	.	.	.	.	.	.	.	.	.	.	.	.
.	24A/	.	.	.	.	.	.	.	.	.	.	.	.	.	.	.	.
.	24B-/	.	.	.	.	.	.	.	.	.	.	.	.	.	.	.	.
.	24c/	.	.	.	.	.	.	.	.	.	.	.	.	.	.	.	.
.	24d/	.	.	.	.	.	.	.	.	.	.	.	.	.	.	.	.
.	24c/JJ)	.	.	.	.	.	.	.	.	.	.	.	.	.	.	.	.
=26	=26	=26	=26	=26	=26	=26	=26	=26	=26	=26	=26	=26	=26	=26	=26	=26	=26
4BB-\ 4D 4F	4B-/	.	2.ryy	.	.	2.ryy	.	.	2.ryy	.	.	2.ryy	.	.	4B-\	-ję	.
4BB-\ 4F	4B-/ 4d	.	.	.	.	.	.	.	.	.	.	.	.	.	4r	.	.
4BB-\ 4F	4B-/ 4d	.	.	.	.	.	.	.	.	.	.	.	.	.	8B-\	mo-	.
.	.	.	.	.	.	.	.	.	.	.	.	.	.	.	8B-\	-ją	.
=27	=27	=27	=27	=27	=27	=27	=27	=27	=27	=27	=27	=27	=27	=27	=27	=27	=27
*^	*	*	*	*	*	*	*	*	*	*	*	*	*	*	*	*	*
!	!	!	!LO:DY:b	!	!	!	!	!	!	!	!	!	!	!	!	!	!	!
2F#X\ 2D\	2ryy	2A/ 2d	sf	2.ryy	.	.	2.ryy	.	.	2.ryy	.	.	2.ryy	.	.	2.d^\	krew	.
24F#/LL	4D\	24A/LL	.	.	.	.	.	.	.	.	.	.	.	.	.	.	.	.
24E#X/	.	24G#X/	.	.	.	.	.	.	.	.	.	.	.	.	.	.	.	.
24F#/	.	24A/	.	.	.	.	.	.	.	.	.	.	.	.	.	.	.	.
24E#/	.	24G#/	.	.	.	.	.	.	.	.	.	.	.	.	.	.	.	.
24F#/	.	24A/	.	.	.	.	.	.	.	.	.	.	.	.	.	.	.	.
24E#/JJ	.	24G#/JJ	.	.	.	.	.	.	.	.	.	.	.	.	.	.	.	.
*v	*v	*	*	*	*	*	*	*	*	*	*	*	*	*	*	*	*	*
=28	=28	=28	=28	=28	=28	=28	=28	=28	=28	=28	=28	=28	=28	=28	=28	=28	=28
!	!	!LO:HP:b	!	!	!	!	!	!	!	!	!	!	!	!	!	!	!
4D\ 4F#X	4A/ 4d	<	2.ryy	.	.	2.ryy	.	.	2.ryy	.	.	2.ryy	.	.	2D\	ci	.
4D\ 4F#	4A/ 4d	.	.	.	.	.	.	.	.	.	.	.	.	.	.	.	.
4FF#X/ 4F#X	4A/ 4d	[[	.	.	.	.	.	.	.	.	.	.	.	.	4c\	od-	.
=29	=29	=29	=29	=29	=29	=29	=29	=29	=29	=29	=29	=29	=29	=29	=29	=29	=29
*^	*^	*	*	*	*	*	*	*	*	*	*	*	*	*	*	*	*
4G\ 4GG\	4ryy	4d/ 4B-/	4ryy	.	2.ryy	.	.	2.ryy	.	.	2.ryy	.	.	2.ryy	.	.	2.B-\	-da-	.
4G\ 4GG\	4ryy	4d/ 4B-/	4ryy	.	.	.	.	.	.	.	.	.	.	.	.	.	.	.	.
24G/LL	4GG\	4d/	24B-\LL	.	.	.	.	.	.	.	.	.	.	.	.	.	.	.	.
24F#X/	.	.	24A\	.	.	.	.	.	.	.	.	.	.	.	.	.	.	.	.
24G/	.	.	24B-\	.	.	.	.	.	.	.	.	.	.	.	.	.	.	.	.
24F#/	.	.	24A\	.	.	.	.	.	.	.	.	.	.	.	.	.	.	.	.
24G/	.	.	24B-\	.	.	.	.	.	.	.	.	.	.	.	.	.	.	.	.
24F#/JJ	.	.	24A\JJ	.	.	.	.	.	.	.	.	.	.	.	.	.	.	.	.
*v	*v	*	*	*	*	*	*	*	*	*	*	*	*	*	*	*	*	*	*
!!LO:LB:g=original	!	!	!	!	!	!	!	!	!	!	!	!	!	!	!	!	!
=30	=30	=30	=30	=30	=30	=30	=30	=30	=30	=30	=30	=30	=30	=30	=30	=30	=30	=30
!	!	!	!LO:HP:b	!	!	!	!	!	!	!	!	!	!	!	!	!	!	!
4GG/ 4G	4d/	4B-\	<	2.ryy	.	.	2.ryy	.	.	2.ryy	.	.	2.ryy	.	.	4G\	-ję;	.
4GG/ 4G	4d/	4B-\	.	.	.	.	.	.	.	.	.	.	.	.	.	4r	.	.
4CC/ 4C	4a/	4c\ 4e-	.	.	.	.	.	.	.	.	.	.	.	.	.	(8A\L	śmierć	.
.	.	.	.	.	.	.	.	.	.	.	.	.	.	.	.	8c\J)	.	.
*	*v	*v	*	*	*	*	*	*	*	*	*	*	*	*	*	*	*	*
=31	=31	=31	=31	=31	=31	=31	=31	=31	=31	=31	=31	=31	=31	=31	=31	=31	=31
!	!	!LO:DY:b	!	!	!	!	!	!	!	!	!	!	!	!	!	!	!
2.DD/ 2.D	2.d/ 2.g 2.b- 2.dd	[ fp	2.ryy	.	.	2.ryy	.	.	2.ryy	.	.	2.ryy	.	.	(8B-\L	dla	.
.	.	.	.	.	.	.	.	.	.	.	.	.	.	.	8d\J)	.	.
.	.	.	.	.	.	.	.	.	.	.	.	.	.	.	(8c\L	Chrys-	.
.	.	.	.	.	.	.	.	.	.	.	.	.	.	.	8B-\J)	.	.
.	.	.	.	.	.	.	.	.	.	.	.	.	.	.	8A^\	-tu-	.
.	.	.	.	.	.	.	.	.	.	.	.	.	.	.	8G^\	-sa	.
=32	=32	=32	=32	=32	=32	=32	=32	=32	=32	=32	=32	=32	=32	=32	=32	=32	=32
!	!LO:TX:b:i:t=rall.	!	!	!	!	!	!	!	!	!	!	!	!	!	!	!	!
2.DD/ 2.D	4r	.	2.ryy	.	.	2.ryy	.	.	2.ryy	.	.	2.ryy	.	.	8F#X^\	dro-	.
.	.	.	.	.	.	.	.	.	.	.	.	.	.	.	8D\	-gą	.
!	!LO:TX:b:i:t=colla voce.	!	!	!	!	!	!	!	!	!	!	!	!	!	!	!	!
!	!	!LO:DY:b	!	!	!	!	!	!	!	!	!	!	!	!	!	!	!
.	2d/ 2f#X 2a 2dd	p	.	.	.	.	.	.	.	.	.	.	.	.	(8E-\L	dusz	.
.	.	.	.	.	.	.	.	.	.	.	.	.	.	.	8D\	.	.
.	.	.	.	.	.	.	.	.	.	.	.	.	.	.	8C\J)	.	.
.	.	.	.	.	.	.	.	.	.	.	.	.	.	.	8AA^>/	do	.
=33	=33	=33	=33	=33	=33	=33	=33	=33	=33	=33	=33	=33	=33	=33	=33	=33	=33
*	*^	*	*	*	*	*	*	*	*	*	*	*	*	*	*	*	*
!	!	!	!	!	!	!	!	!	!	!	!	!	!	!	!	!LO:TX:a:B:i:t=a tempo.	!	!LO:DY:a
4GGG/ 4GG	4ryy	4gg\ 4g\ 4b-	.	2.ryy	.	.	2.ryy	.	.	2.ryy	.	.	2.ryy	.	.	[2.GG/	nie-	fp
!	!LO:TX:a:B:t=a tempo.	!	!	!	!	!	!	!	!	!	!	!	!	!	!	!	!	!
4G\	4d/ 4B-/	4ryy	.	.	.	.	.	.	.	.	.	.	.	.	.	.	.	.
24G\LL	4d/	24B-\LL	.	.	.	.	.	.	.	.	.	.	.	.	.	.	.	.
24F#X\	.	24A\	.	.	.	.	.	.	.	.	.	.	.	.	.	.	.	.
24G\	.	24B-\	.	.	.	.	.	.	.	.	.	.	.	.	.	.	.	.
24F#\	.	24A\	.	.	.	.	.	.	.	.	.	.	.	.	.	.	.	.
24G\	.	24B-\	.	.	.	.	.	.	.	.	.	.	.	.	.	.	.	.
24F#\JJ	.	24A\JJ	.	.	.	.	.	.	.	.	.	.	.	.	.	.	.	.
*	*v	*v	*	*	*	*	*	*	*	*	*	*	*	*	*	*	*	*
=34	=34	=34	=34	=34	=34	=34	=34	=34	=34	=34	=34	=34	=34	=34	=34	=34	=34
4G\	4B-/ 4d	.	2.ryy	.	.	2.ryy	.	.	2.ryy	.	.	2.ryy	.	.	2GG/]	.	.
4G\	4B-/ 4d	.	.	.	.	.	.	.	.	.	.	.	.	.	.	.	.
4G\	4B-/ 4d	.	.	.	.	.	.	.	.	.	.	.	.	.	4G\	-ba	.
!!LO:LB:g=original	!	!	!	!	!	!	!	!	!	!	!	!	!	!	!	!
=35	=35	=35	=35	=35	=35	=35	=35	=35	=35	=35	=35	=35	=35	=35	=35	=35	=35
*^	*^	*	*	*	*	*	*	*	*	*	*	*	*	*	*	*	*
!	!	!	!	!LO:DY:b	!	!	!	!	!	!	!	!	!	!	!	!	!	!	!
2E-\ 2EE-\	2ryy	2g/ 2B-/	2ryy	f	2.ryy	.	.	2.ryy	.	.	2.ryy	.	.	2.ryy	.	.	2.G^\	śmierć	.
24G/LL	4E-\	4g/	24B-\LL	.	.	.	.	.	.	.	.	.	.	.	.	.	.	.	.
24F#X/	.	.	24A\	.	.	.	.	.	.	.	.	.	.	.	.	.	.	.	.
24G/	.	.	24B-\	.	.	.	.	.	.	.	.	.	.	.	.	.	.	.	.
24F#/	.	.	24A\	.	.	.	.	.	.	.	.	.	.	.	.	.	.	.	.
24G/	.	.	24B-\	.	.	.	.	.	.	.	.	.	.	.	.	.	.	.	.
24F#/JJ	.	.	24A\JJ	.	.	.	.	.	.	.	.	.	.	.	.	.	.	.	.
*v	*v	*	*	*	*	*	*	*	*	*	*	*	*	*	*	*	*	*	*
*	*v	*v	*	*	*	*	*	*	*	*	*	*	*	*	*	*	*	*
=36	=36	=36	=36	=36	=36	=36	=36	=36	=36	=36	=36	=36	=36	=36	=36	=36	=36
4E-\ 4G	4B-/ 4g	.	2.ryy	.	.	2.ryy	.	.	2.ryy	.	.	2.ryy	.	.	8.G\L	dla	.
.	.	.	.	.	.	.	.	.	.	.	.	.	.	.	16G\Jk	Chry-	.
4E-\ 4G	4B-/ 4g	.	.	.	.	.	.	.	.	.	.	.	.	.	2G\	-stu-	.
4E-\ 4G	4B-/ 4g	.	.	.	.	.	.	.	.	.	.	.	.	.	.	.	.
=37	=37	=37	=37	=37	=37	=37	=37	=37	=37	=37	=37	=37	=37	=37	=37	=37	=37
*	*^	*	*	*	*	*	*	*	*	*	*	*	*	*	*	*	*
2BB-\ 2B-	2f/ 2d/	2ryy	.	2.ryy	.	.	2.ryy	.	.	2.ryy	.	.	2.ryy	.	.	2.Fn^\	-sa	.
4D\ 4F	4d/	24B-\LL	.	.	.	.	.	.	.	.	.	.	.	.	.	.	.	.
.	.	24A\	.	.	.	.	.	.	.	.	.	.	.	.	.	.	.	.
.	.	24B-\	.	.	.	.	.	.	.	.	.	.	.	.	.	.	.	.
.	.	24A\	.	.	.	.	.	.	.	.	.	.	.	.	.	.	.	.
.	.	24B-\	.	.	.	.	.	.	.	.	.	.	.	.	.	.	.	.
.	.	24A\JJ	.	.	.	.	.	.	.	.	.	.	.	.	.	.	.	.
=38	=38	=38	=38	=38	=38	=38	=38	=38	=38	=38	=38	=38	=38	=38	=38	=38	=38	=38
!	!	!	!LO:HP:b:i:t=decres.	!	!	!	!	!	!	!	!	!	!	!	!	!	!	!
4BB-\ 4F	4d/	4B-\	>	2.ryy	.	.	2.ryy	.	.	2.ryy	.	.	2.ryy	.	.	4F\	dro-	.
4BB-\ 4F	4d/	4B-\	.	.	.	.	.	.	.	.	.	.	.	.	.	4F\	-gą	.
4BB-\ 4F	4d/	4B-\	.	.	.	.	.	.	.	.	.	.	.	.	.	8BB-/	dusz	.
.	.	.	.	.	.	.	.	.	.	.	.	.	.	.	.	8BB-/	do	.
!!LO:LB:g=original	!	!	!	!	!	!	!	!	!	!	!	!	!	!	!	!	!
=39	=39	=39	=39	=39	=39	=39	=39	=39	=39	=39	=39	=39	=39	=39	=39	=39	=39	=39
!	!	!	!LO:DY:b	!	!	!	!	!	!	!	!	!	!	!	!	!	!	!
2EE-/ 2E-	2A/ 2e- 2G/	2ryy	sf	2.ryy	.	.	2.ryy	.	.	2.ryy	.	.	2.ryy	.	.	2E-\	nie-	.
4EE-/ 4E-	4e-/	24B-\LL	.	.	.	.	.	.	.	.	.	.	.	.	.	8E-\	-ba	.
.	.	24A\	.	.	.	.	.	.	.	.	.	.	.	.	.	.	.	.
.	.	24B-\	.	.	.	.	.	.	.	.	.	.	.	.	.	.	.	.
.	.	24A\	.	.	.	.	.	.	.	.	.	.	.	.	.	8E-\	do	.
.	.	24B-\	.	.	.	.	.	.	.	.	.	.	.	.	.	.	.	.
.	.	24A\JJ	.	.	.	.	.	.	.	.	.	.	.	.	.	.	.	.
*	*v	*v	*	*	*	*	*	*	*	*	*	*	*	*	*	*	*	*
=40	=40	=40	=40	=40	=40	=40	=40	=40	=40	=40	=40	=40	=40	=40	=40	=40	=40
4DD/ 4D	4F#X/ 4e-	.	2.ryy	.	.	2.ryy	.	.	2.ryy	.	.	2.ryy	.	.	(2D\	nie-	.
4DD/ 4D	4F#/ 4d	.	.	.	.	.	.	.	.	.	.	.	.	.	.	.	.
4DD/ 4D	4F#/ 4d	.	.	.	.	.	.	.	.	.	.	.	.	.	8En\L	.	.
.	.	.	.	.	.	.	.	.	.	.	.	.	.	.	8F#X\J)	.	.
=41||	=41||	=41||	=41||	=41||	=41||	=41||	=41||	=41||	=41||	=41||	=41||	=41||	=41||	=41||	=41||	=41||	=41||
!	!	!LO:DY:b	!	!	!	!	!	!	!	!	!	!	!	!	!	!	!
2.EEn/ 2.En	16B-/LL 16c#X 16g	f	2.ryy	.	.	2.ryy	.	.	2.ryy	.	.	2.ryy	.	.	2G\	-ba!	.
!	!LO:TX:b:i:t=agitato.	!	!	!	!	!	!	!	!	!	!	!	!	!	!	!	!
.	16A/	.	.	.	.	.	.	.	.	.	.	.	.	.	.	.	.
.	16B-/ 16c# 16g	.	.	.	.	.	.	.	.	.	.	.	.	.	.	.	.
.	16G/JJ	.	.	.	.	.	.	.	.	.	.	.	.	.	.	.	.
.	16B-/LL 16c# 16g	.	.	.	.	.	.	.	.	.	.	.	.	.	.	.	.
.	16A/	.	.	.	.	.	.	.	.	.	.	.	.	.	.	.	.
.	16B-/ 16c# 16g	.	.	.	.	.	.	.	.	.	.	.	.	.	.	.	.
.	16G/JJ	.	.	.	.	.	.	.	.	.	.	.	.	.	.	.	.
.	16B-/LL 16c# 16g	.	.	.	.	.	.	.	.	.	.	.	.	.	8r	.	.
.	16A/	.	.	.	.	.	.	.	.	.	.	.	.	.	.	.	.
*	*	*	*	*	*	*	*	*	*	*	*	*	*	*	*clefG2	*	*
!	!	!	!	!	!	!	!	!	!	!	!	!	!	!	!LO:TX:a:B:i:t=BORUS recitativo.	!	!
.	16B-/ 16c# 16g	.	.	.	.	.	.	.	.	.	.	.	.	.	8b-\	Twych	.
.	16G/JJ	.	.	.	.	.	.	.	.	.	.	.	.	.	.	.	.
=42	=42	=42	=42	=42	=42	=42	=42	=42	=42	=42	=42	=42	=42	=42	=42	=42	=42
2.EEn/ 2.En	16B-/LL 16c#X 16g	.	2.ryy	.	.	2.ryy	.	.	2.ryy	.	.	2.ryy	.	.	4b-\	cza-	.
.	16A/	.	.	.	.	.	.	.	.	.	.	.	.	.	.	.	.
.	16B-/ 16c# 16g	.	.	.	.	.	.	.	.	.	.	.	.	.	.	.	.
.	16G/JJ	.	.	.	.	.	.	.	.	.	.	.	.	.	.	.	.
.	16B-/LL 16c# 16g	.	.	.	.	.	.	.	.	.	.	.	.	.	4b-\	-rów	.
.	16A/	.	.	.	.	.	.	.	.	.	.	.	.	.	.	.	.
.	16B-/ 16c# 16g	.	.	.	.	.	.	.	.	.	.	.	.	.	.	.	.
.	16G/JJ	.	.	.	.	.	.	.	.	.	.	.	.	.	.	.	.
.	16B-/LL 16c# 16g	.	.	.	.	.	.	.	.	.	.	.	.	.	8b-\	nam	.
.	16A/	.	.	.	.	.	.	.	.	.	.	.	.	.	.	.	.
.	16B-/ 16c# 16g	.	.	.	.	.	.	.	.	.	.	.	.	.	8b-\	nie	.
.	16G/JJ	.	.	.	.	.	.	.	.	.	.	.	.	.	.	.	.
!!LO:LB:g=original	!	!	!	!	!	!	!	!	!	!	!	!	!	!	!	!
=43	=43	=43	=43	=43	=43	=43	=43	=43	=43	=43	=43	=43	=43	=43	=43	=43	=43
!	!	!	!	!	!	!	!	!	!	!	!	!	!	!	!LO:TX:a:i:t=accelerando.	!	!
2EEn/ 2En	16B-/LL 16c#X 16g	.	2.ryy	.	.	2.ryy	.	.	2.ryy	.	.	2.ryy	.	.	4b-\	trze-	.
.	16A/	.	.	.	.	.	.	.	.	.	.	.	.	.	.	.	.
.	16B-/ 16c# 16g	.	.	.	.	.	.	.	.	.	.	.	.	.	.	.	.
.	16G/JJ	.	.	.	.	.	.	.	.	.	.	.	.	.	.	.	.
.	16B-/LL 16c# 16g	.	.	.	.	.	.	.	.	.	.	.	.	.	4b-\	-ba,	.
.	16A/	.	.	.	.	.	.	.	.	.	.	.	.	.	.	.	.
.	16B-/ 16c# 16g	.	.	.	.	.	.	.	.	.	.	.	.	.	.	.	.
.	16G/JJ	.	.	.	.	.	.	.	.	.	.	.	.	.	.	.	.
4DD/ 4D	16B-/LL 16c# 16g	.	.	.	.	.	.	.	.	.	.	.	.	.	8r	.	.
.	16A/	.	.	.	.	.	.	.	.	.	.	.	.	.	.	.	.
.	16B-/ 16c# 16g	.	.	.	.	.	.	.	.	.	.	.	.	.	8b-\	śmierć	.
.	16G/JJ	.	.	.	.	.	.	.	.	.	.	.	.	.	.	.	.
=44	=44	=44	=44	=44	=44	=44	=44	=44	=44	=44	=44	=44	=44	=44	=44	=44	=44
4.CC#X/ 4.C#X	8G/L 8B- 8en 8g	.	2.ryy	.	.	2.ryy	.	.	2.ryy	.	.	2.ryy	.	.	2b-^\	krwa-	.
.	8G/ 8B- 8e 8g	.	.	.	.	.	.	.	.	.	.	.	.	.	.	.	.
.	8G/ 8B- 8e 8g	.	.	.	.	.	.	.	.	.	.	.	.	.	.	.	.
8EEEn/L 8EEn	8G/ 8B- 8e 8g	.	.	.	.	.	.	.	.	.	.	.	.	.	.	.	.
8GGG/ 8GG	8G/ 8B- 8e 8g	.	.	.	.	.	.	.	.	.	.	.	.	.	4b-\	-wą	.
8BBB-X/J 8BB-X	8G/J 8B- 8e 8g	.	.	.	.	.	.	.	.	.	.	.	.	.	.	.	.
=45	=45	=45	=45	=45	=45	=45	=45	=45	=45	=45	=45	=45	=45	=45	=45	=45	=45
*tremolo	*	*	*	*	*	*	*	*	*	*	*	*	*	*	*	*	*
!	!	!	!	!	!	!	!	!	!	!	!	!	!	!	!	!	!LO:DY:a
!	!	!LO:DY:b	!	!	!	!	!	!	!	!	!	!	!	!	!	!	!
16CC#X/LL	2en/ 2g 2a# 2een	f	2.ryy	.	.	2.ryy	.	.	2.ryy	.	.	2.ryy	.	.	[2een\	mu-	f
16C#X/	.	.	.	.	.	.	.	.	.	.	.	.	.	.	.	.	.
16CC#/	.	.	.	.	.	.	.	.	.	.	.	.	.	.	.	.	.
16C#/	.	.	.	.	.	.	.	.	.	.	.	.	.	.	.	.	.
16CC#/	.	.	.	.	.	.	.	.	.	.	.	.	.	.	.	.	.
16C#/	.	.	.	.	.	.	.	.	.	.	.	.	.	.	.	.	.
16CC#/	.	.	.	.	.	.	.	.	.	.	.	.	.	.	.	.	.
16C#/JJ	.	.	.	.	.	.	.	.	.	.	.	.	.	.	.	.	.
*Xtremolo	*	*	*	*	*	*	*	*	*	*	*	*	*	*	*	*	*
16AAA#X/LL	4e/ 4g 4cc 4ee	.	.	.	.	.	.	.	.	.	.	.	.	.	8ee\]	.	.
16AA#X/	.	.	.	.	.	.	.	.	.	.	.	.	.	.	.	.	.
16AAA#/	.	.	.	.	.	.	.	.	.	.	.	.	.	.	8ee\	-sisz	.
16AA#/JJ	.	.	.	.	.	.	.	.	.	.	.	.	.	.	.	.	.
=46	=46	=46	=46	=46	=46	=46	=46	=46	=46	=46	=46	=46	=46	=46	=46	=46	=46
*tremolo	*	*	*	*	*	*	*	*	*	*	*	*	*	*	*	*	*
16BBBn/LL	2en/ 2g 2bn 2een	.	2.ryy	.	.	2.ryy	.	.	2.ryy	.	.	2.ryy	.	.	2ee-\	mu-	.
16BBn/	.	.	.	.	.	.	.	.	.	.	.	.	.	.	.	.	.
16BBB/	.	.	.	.	.	.	.	.	.	.	.	.	.	.	.	.	.
16BB/	.	.	.	.	.	.	.	.	.	.	.	.	.	.	.	.	.
16BBB/	.	.	.	.	.	.	.	.	.	.	.	.	.	.	.	.	.
16BB/	.	.	.	.	.	.	.	.	.	.	.	.	.	.	.	.	.
16BBB/	.	.	.	.	.	.	.	.	.	.	.	.	.	.	.	.	.
16BB/	.	.	.	.	.	.	.	.	.	.	.	.	.	.	.	.	.
16BBB/	4f#X/ 4a 4b 4dd#X	.	.	.	.	.	.	.	.	.	.	.	.	.	8dd#X\	.	.
16BB/	.	.	.	.	.	.	.	.	.	.	.	.	.	.	.	.	.
16BBB/	.	.	.	.	.	.	.	.	.	.	.	.	.	.	8dd#\	-sisz	.
16BB/JJ	.	.	.	.	.	.	.	.	.	.	.	.	.	.	.	.	.
!!LO:LB:g=original	!	!	!	!	!	!	!	!	!	!	!	!	!	!	!	!
!!LO:PB:g=original	!	!	!	!	!	!	!	!	!	!	!	!	!	!	!	!
*Xtremolo	*	*	*	*	*	*	*	*	*	*	*	*	*	*	*	*	*
=47||	=47||	=47||	=47||	=47||	=47||	=47||	=47||	=47||	=47||	=47||	=47||	=47||	=47||	=47||	=47||	=47||	=47||
*k[f#]	*k[f#]	*	*k[f#]	*	*	*k[f#]	*	*	*k[f#]	*	*	*k[f#]	*	*	*k[f#]	*	*
*M6/8	*M6/8	*	*M6/8	*	*	*M6/8	*	*	*M6/8	*	*	*M6/8	*	*	*M6/8	*	*
!	!	!LO:DY:b	!	!	!	!	!	!	!	!	!	!	!	!	!	!	!
8.EE\L 8.E	16.e/LL 16.g 16.b 16.ee	sf	4r	.	.	4r	.	.	4r	.	.	4ee\	znieść!	.	2.ryy	.	.
.	32e/JJk 32g 32b 32ee	.	.	.	.	.	.	.	.	.	.	.	.	.	.	.	.
.	4e/ 4g 4b 4ee	.	.	.	.	.	.	.	.	.	.	.	.	.	.	.	.
16BB\L	.	.	.	.	.	.	.	.	.	.	.	.	.	.	.	.	.
!	!	!	!	!	!	!	!	!	!	!	!	!LO:TX:a:B:t=Allo. con moto.	!	!	!	!	!
16C#X\	.	.	8r	.	.	8r	.	.	8r	.	.	8r	.	.	.	.	.
16D#X\JJ	.	.	.	.	.	.	.	.	.	.	.	.	.	.	.	.	.
16E\LL	8r	.	4r	.	.	4r	.	.	4r	.	.	4r	.	.	.	.	.
16D#\	.	.	.	.	.	.	.	.	.	.	.	.	.	.	.	.	.
.	(<32qqe/LLL	.	.	.	.	.	.	.	.	.	.	.	.	.	.	.	.
.	32qqg/	.	.	.	.	.	.	.	.	.	.	.	.	.	.	.	.
.	32qqb/JJJ	.	.	.	.	.	.	.	.	.	.	.	.	.	.	.	.
16E\	8ee'\)	.	.	.	.	.	.	.	.	.	.	.	.	.	.	.	.
16F#\	.	.	.	.	.	.	.	.	.	.	.	.	.	.	.	.	.
.	(<32qqee/LLL	.	.	.	.	.	.	.	.	.	.	.	.	.	.	.	.
.	32qqgg/	.	.	.	.	.	.	.	.	.	.	.	.	.	.	.	.
.	32qqbb/JJJ	.	.	.	.	.	.	.	.	.	.	.	.	.	.	.	.
16G\	8eee'\)	.	16E\	.	Zbieg	16G\	Zbieg	.	16b\	Zbieg	.	16ee\	Zbieg	.	.	.	.
16F#\JJ	.	.	16E\	.	le-	16G\	le-	.	16b\	le-	.	16ee\	le-	.	.	.	.
=48	=48	=48	=48	=48	=48	=48	=48	=48	=48	=48	=48	=48	=48	=48	=48	=48	=48
!	!	!LO:DY:b	!	!	!	!	!	!	!	!	!	!	!	!	!	!	!
8.E\L	16.e/LL 16.g 16.b 16.ee	sf	[4.E\	.	-chic-	[4.G\	-chic-	.	[4.b\	-chic-	.	[4.ee\	-chic-	.	2.ryy	.	.
.	32e/JJk 32g 32b 32ee	.	.	.	.	.	.	.	.	.	.	.	.	.	.	.	.
.	4e/ 4g 4b 4ee	.	.	.	.	.	.	.	.	.	.	.	.	.	.	.	.
16BB\L	.	.	.	.	.	.	.	.	.	.	.	.	.	.	.	.	.
16C#X\	.	.	.	.	.	.	.	.	.	.	.	.	.	.	.	.	.
16D#X\JJ	.	.	.	.	.	.	.	.	.	.	.	.	.	.	.	.	.
16E\LL	8r	.	4E\]	.	.	4G\]	.	.	4b\]	.	.	4ee\]	.	.	.	.	.
16D#\	.	.	.	.	.	.	.	.	.	.	.	.	.	.	.	.	.
.	(<32qqe/LLL	.	.	.	.	.	.	.	.	.	.	.	.	.	.	.	.
.	32qqg/	.	.	.	.	.	.	.	.	.	.	.	.	.	.	.	.
.	32qqb/JJJ	.	.	.	.	.	.	.	.	.	.	.	.	.	.	.	.
16E\	8ee'\)	.	.	.	.	.	.	.	.	.	.	.	.	.	.	.	.
16F#\	.	.	.	.	.	.	.	.	.	.	.	.	.	.	.	.	.
.	(<32qqee/LLL	.	.	.	.	.	.	.	.	.	.	.	.	.	.	.	.
.	32qqgg/	.	.	.	.	.	.	.	.	.	.	.	.	.	.	.	.
.	32qqbb/JJJ	.	.	.	.	.	.	.	.	.	.	.	.	.	.	.	.
16G\	8eee'\)	.	16E\	.	-ki	16G\	-ki	.	16b\	-ki	.	16ee\	-ki	.	.	.	.
16F#\JJ	.	.	16E\	.	prze-	16G\	prze-	.	16b\	prze-	.	16ee\	prze-	.	.	.	.
=49	=49	=49	=49	=49	=49	=49	=49	=49	=49	=49	=49	=49	=49	=49	=49	=49	=49
!	!	!LO:DY:b	!	!	!	!	!	!	!	!	!	!	!	!	!	!	!
8.AA\L 8.A	16.e/LL 16.g 16.b 16.ee	sf	[4.AA/	.	-klę-	[4.A\	-klę-	.	[4.cc\	-klę-	.	[4.ee\	-klę-	.	2.ryy	.	.
.	32e/JJk 32g 32b 32ee	.	.	.	.	.	.	.	.	.	.	.	.	.	.	.	.
.	4e/ 4g 4b 4ee	.	.	.	.	.	.	.	.	.	.	.	.	.	.	.	.
16E\L	.	.	.	.	.	.	.	.	.	.	.	.	.	.	.	.	.
16F#\	.	.	.	.	.	.	.	.	.	.	.	.	.	.	.	.	.
16G#X\JJ	.	.	.	.	.	.	.	.	.	.	.	.	.	.	.	.	.
16A\LL	8r	.	4AA/]	.	.	4A\]	.	.	4cc\]	.	.	4ee\]	.	.	.	.	.
16G#\	.	.	.	.	.	.	.	.	.	.	.	.	.	.	.	.	.
.	(<32qqe/LLL	.	.	.	.	.	.	.	.	.	.	.	.	.	.	.	.
.	32qqg/	.	.	.	.	.	.	.	.	.	.	.	.	.	.	.	.
.	32qqb/JJJ	.	.	.	.	.	.	.	.	.	.	.	.	.	.	.	.
16A\	8ee'\)	.	.	.	.	.	.	.	.	.	.	.	.	.	.	.	.
16B\	.	.	.	.	.	.	.	.	.	.	.	.	.	.	.	.	.
.	(<32qqee/LLL	.	.	.	.	.	.	.	.	.	.	.	.	.	.	.	.
.	32qqgg/	.	.	.	.	.	.	.	.	.	.	.	.	.	.	.	.
.	32qqbb/JJJ	.	.	.	.	.	.	.	.	.	.	.	.	.	.	.	.
16c\	8eee'\)	.	16AA/	.	-ty	16A\	-ty	.	16cc\	-ty	.	16ff#\	-ty	.	.	.	.
16A\JJ	.	.	16AA/	.	niech	16A\	niech	.	16cc\	niech	.	16ee\	niech	.	.	.	.
!!LO:LB:g=original	!	!	!	!	!	!	!	!	!	!	!	!	!	!	!	!
=50	=50	=50	=50	=50	=50	=50	=50	=50	=50	=50	=50	=50	=50	=50	=50	=50	=50
!	!	!	!	!	!	!	!	!	!	!	!	!	!	!	!	!	!
!	!	!LO:DY:b	!	!	!	!	!	!	!	!	!	!	!	!	!	!	!
8.BB\L 8.B	16.e/LL 16.g 16.b 16.ee	sf	4.BB/	.	zgi-	4.F#\	zgi-	.	4.b\	zgi-	.	4.dd#X\	zgi-	.	2.ryy	.	.
.	32e/JJk 32g 32b 32ee	.	.	.	.	.	.	.	.	.	.	.	.	.	.	.	.
.	4e/ 4g 4b 4ee	.	.	.	.	.	.	.	.	.	.	.	.	.	.	.	.
16A#X\L	.	.	.	.	.	.	.	.	.	.	.	.	.	.	.	.	.
16B\	.	.	.	.	.	.	.	.	.	.	.	.	.	.	.	.	.
16c\JJ	.	.	.	.	.	.	.	.	.	.	.	.	.	.	.	.	.
16B\LL	8r	.	4BB/	.	-nie	4F#\	-nie	.	4b\	-nie	.	4dd#\	-nie	.	.	.	.
16A#\	.	.	.	.	.	.	.	.	.	.	.	.	.	.	.	.	.
.	(<32qqe/LLL	.	.	.	.	.	.	.	.	.	.	.	.	.	.	.	.
.	32qqg/	.	.	.	.	.	.	.	.	.	.	.	.	.	.	.	.
.	32qqb/JJJ	.	.	.	.	.	.	.	.	.	.	.	.	.	.	.	.
16B\	8ee'\)	.	.	.	.	.	.	.	.	.	.	.	.	.	.	.	.
16An\	.	.	.	.	.	.	.	.	.	.	.	.	.	.	.	.	.
.	(<32qqee/LLL	.	.	.	.	.	.	.	.	.	.	.	.	.	.	.	.
.	32qqgg/	.	.	.	.	.	.	.	.	.	.	.	.	.	.	.	.
.	32qqbb/JJJ	.	.	.	.	.	.	.	.	.	.	.	.	.	.	.	.
16G\	8eee'\)	.	16r	.	.	16r	.	.	16r	.	.	16r	.	.	.	.	.
16F#\JJ	.	.	16BB/	.	niech	16F#\	niech	.	16a/	niech	.	16dd#\	niech	.	.	.	.
=51	=51	=51	=51	=51	=51	=51	=51	=51	=51	=51	=51	=51	=51	=51	=51	=51	=51
!	!	!LO:DY:b	!	!	!	!	!	!	!	!	!	!	!	!	!	!	!
8.E\L	16.e/LL 16.g 16.b 16.ee	sf	4.E\	.	zgi-	4.G\	zgi-	.	4.g/	zgi-	.	4.ee\	zgi-	.	2.ryy	.	.
.	32e/JJk 32g 32b 32ee	.	.	.	.	.	.	.	.	.	.	.	.	.	.	.	.
.	4e/ 4g 4b 4ee	.	.	.	.	.	.	.	.	.	.	.	.	.	.	.	.
16BB\L	.	.	.	.	.	.	.	.	.	.	.	.	.	.	.	.	.
16C#X\	.	.	.	.	.	.	.	.	.	.	.	.	.	.	.	.	.
16D#X\JJ	.	.	.	.	.	.	.	.	.	.	.	.	.	.	.	.	.
16E\LL	8r	.	4E\	.	-nie	4G\	-nie	.	4b\	-nie	.	4ee\	-nie	.	.	.	.
16D#\	.	.	.	.	.	.	.	.	.	.	.	.	.	.	.	.	.
.	(<32qqe/LLL	.	.	.	.	.	.	.	.	.	.	.	.	.	.	.	.
.	32qqg/	.	.	.	.	.	.	.	.	.	.	.	.	.	.	.	.
.	32qqb/JJJ	.	.	.	.	.	.	.	.	.	.	.	.	.	.	.	.
16E\	8ee'\)	.	.	.	.	.	.	.	.	.	.	.	.	.	.	.	.
16F#\	.	.	.	.	.	.	.	.	.	.	.	.	.	.	.	.	.
.	(<32qqee/LLL	.	.	.	.	.	.	.	.	.	.	.	.	.	.	.	.
.	32qqgg/	.	.	.	.	.	.	.	.	.	.	.	.	.	.	.	.
.	32qqbb/JJJ	.	.	.	.	.	.	.	.	.	.	.	.	.	.	.	.
16G\	8eee'\)	.	16E\	.	pols-	16G\	pols-	.	16b\	pols-	.	16ee\	pols-	.	.	.	.
16F#\JJ	.	.	16E\	.	-ki	16G\	-ki	.	16b\	-ki	.	16ee\	-ki	.	.	.	.
=52	=52	=52	=52	=52	=52	=52	=52	=52	=52	=52	=52	=52	=52	=52	=52	=52	=52
!	!	!LO:DY:b	!	!	!	!	!	!	!	!	!	!	!	!	!	!	!
8.E\L	16.g\LL 16.b 16.ee	sf	4.E\	.	syn	4.G\	syn	.	4.b\	syn	.	4.ee\	syn	.	2.ryy	.	.
.	32g\JJk 32b 32ee	.	.	.	.	.	.	.	.	.	.	.	.	.	.	.	.
.	4g\ 4b 4ee	.	.	.	.	.	.	.	.	.	.	.	.	.	.	.	.
16BB\L	.	.	.	.	.	.	.	.	.	.	.	.	.	.	.	.	.
16C#X\	.	.	.	.	.	.	.	.	.	.	.	.	.	.	.	.	.
16D#X\JJ	.	.	.	.	.	.	.	.	.	.	.	.	.	.	.	.	.
16E\LL	8r	.	4r	.	.	4r	.	.	4r	.	.	4r	.	.	.	.	.
16F#\	.	.	.	.	.	.	.	.	.	.	.	.	.	.	.	.	.
.	(<32qqe/LLL	.	.	.	.	.	.	.	.	.	.	.	.	.	.	.	.
.	32qqg/	.	.	.	.	.	.	.	.	.	.	.	.	.	.	.	.
.	32qqb/JJJ	.	.	.	.	.	.	.	.	.	.	.	.	.	.	.	.
16G\	8ee'\)	.	.	.	.	.	.	.	.	.	.	.	.	.	.	.	.
16A\	.	.	.	.	.	.	.	.	.	.	.	.	.	.	.	.	.
.	(<32qqee/LLL	.	.	.	.	.	.	.	.	.	.	.	.	.	.	.	.
.	32qqgg/	.	.	.	.	.	.	.	.	.	.	.	.	.	.	.	.
.	32qqbb/JJJ	.	.	.	.	.	.	.	.	.	.	.	.	.	.	.	.
16B\	8eee'\)	.	8C/	.	ze	8G\	ze	.	8a#X/	ze	.	8ee\	ze	.	.	.	.
16c#X\JJ	.	.	.	.	.	.	.	.	.	.	.	.	.	.	.	.	.
=53	=53	=53	=53	=53	=53	=53	=53	=53	=53	=53	=53	=53	=53	=53	=53	=53	=53
!	!	!LO:DY:b	!	!	!	!	!	!	!	!	!	!	!	!	!	!	!
!	!LO:N:vis=16	!	!	!	!	!	!	!	!	!	!	!	!	!	!	!	!
8.Dn^\L 8.dn	16.g/LL 16.b 16.dd	.	4.D\	.	zgra-	4.G\	zgra-	.	4.b\	zgra-	.	4.dd\	zgra-	.	2.ryy	.	.
.	32g/JJk 32b 32dd	.	.	.	.	.	.	.	.	.	.	.	.	.	.	.	.
.	4g\ 4b 4dd	.	.	.	.	.	.	.	.	.	.	.	.	.	.	.	.
16Dn\L	.	.	.	.	.	.	.	.	.	.	.	.	.	.	.	.	.
16E\	.	.	.	.	.	.	.	.	.	.	.	.	.	.	.	.	.
16F#\JJ	.	.	.	.	.	.	.	.	.	.	.	.	.	.	.	.	.
16G\LL	8r	.	4D\	.	-ją	4G\	-ją	.	4b\	-ją	.	4dd\	-ją	.	.	.	.
16F#\	.	.	.	.	.	.	.	.	.	.	.	.	.	.	.	.	.
.	(<32qqg/LLL	.	.	.	.	.	.	.	.	.	.	.	.	.	.	.	.
.	32qqb/JJJ	.	.	.	.	.	.	.	.	.	.	.	.	.	.	.	.
16G\	8dd\)	.	.	.	.	.	.	.	.	.	.	.	.	.	.	.	.
16A\	.	.	.	.	.	.	.	.	.	.	.	.	.	.	.	.	.
.	(32qqgg/LLL	.	.	.	.	.	.	.	.	.	.	.	.	.	.	.	.
.	32qqbb/JJJ	.	.	.	.	.	.	.	.	.	.	.	.	.	.	.	.
16B\	8ddd\)	.	16G\	.	zgra-	16B\	zgra-	.	16b\	zgra-	.	16gg\	zgra-	.	.	.	.
16c\JJ	.	.	16G\	.	-ją	16c\	-ją	.	16cc\	-ją	.	16gg\	-ją	.	.	.	.
=54	=54	=54	=54	=54	=54	=54	=54	=54	=54	=54	=54	=54	=54	=54	=54	=54	=54
!	!	!LO:DY:b	!	!	!	!	!	!	!	!	!	!	!	!	!	!	!
8.D\L 8.d	16.f#/LL 16.a 16.dd	sf	4.D\	.	sług	4.d\	sług	.	4.dd\	sług	.	4.ff#\	sług	.	2.ryy	.	.
.	32f#/JJk 32a 32dd	.	.	.	.	.	.	.	.	.	.	.	.	.	.	.	.
.	4f#/ 4a 4dd	.	.	.	.	.	.	.	.	.	.	.	.	.	.	.	.
16E\L	.	.	.	.	.	.	.	.	.	.	.	.	.	.	.	.	.
16F#\	.	.	.	.	.	.	.	.	.	.	.	.	.	.	.	.	.
16E\JJ	.	.	.	.	.	.	.	.	.	.	.	.	.	.	.	.	.
16D\LL	8r	.	8D\	.	niech	8A\	niech	.	8dd\	niech	.	8ff#\	niech	.	.	.	.
16E\	.	.	.	.	.	.	.	.	.	.	.	.	.	.	.	.	.
.	(<32qqf#/LLL	.	.	.	.	.	.	.	.	.	.	.	.	.	.	.	.
.	32qqa/JJJ	.	.	.	.	.	.	.	.	.	.	.	.	.	.	.	.
16F#\	8dd'\)	.	8r	.	.	8r	.	.	8r	.	.	8r	.	.	.	.	.
16G\	.	.	.	.	.	.	.	.	.	.	.	.	.	.	.	.	.
.	(<32qqff#/LLL	.	.	.	.	.	.	.	.	.	.	.	.	.	.	.	.
.	32qqaa/JJJ	.	.	.	.	.	.	.	.	.	.	.	.	.	.	.	.
16A\	8ddd'\)	.	16D\	.	pod-	16A\	pod-	.	16dd\	pod-	.	16ff#\	pod-	.	.	.	.
16A#X\JJ	.	.	16D\	.	-ła	16A#X\	-ła	.	16dd\	-ła	.	16ff#\	-ła	.	.	.	.
!!LO:LB:g=original	!	!	!	!	!	!	!	!	!	!	!	!	!	!	!	!
=55	=55	=55	=55	=55	=55	=55	=55	=55	=55	=55	=55	=55	=55	=55	=55	=55	=55
!	!	!LO:DY:b	!	!	!	!	!	!	!	!	!	!	!	!	!	!	!
8.BB\L 8.B	16.f#/LL 16.b 16.dd#X	sf	4.BB/	.	krew	4.B\	krew	.	4.dd#X\	krew	.	4.ff#\	krew	.	2.ryy	.	.
.	32f#/JJk 32b 32dd#	.	.	.	.	.	.	.	.	.	.	.	.	.	.	.	.
.	4f#/ 4b 4dd#	.	.	.	.	.	.	.	.	.	.	.	.	.	.	.	.
16d#X\L	.	.	.	.	.	.	.	.	.	.	.	.	.	.	.	.	.
16f#\	.	.	.	.	.	.	.	.	.	.	.	.	.	.	.	.	.
16e\JJ	.	.	.	.	.	.	.	.	.	.	.	.	.	.	.	.	.
16d#X\LL	8r	.	4r	.	.	4r	.	.	4r	.	.	4r	.	.	.	.	.
16c\	.	.	.	.	.	.	.	.	.	.	.	.	.	.	.	.	.
.	32qqf#/LLL	.	.	.	.	.	.	.	.	.	.	.	.	.	.	.	.
.	32qqb/JJJ	.	.	.	.	.	.	.	.	.	.	.	.	.	.	.	.
16B\	8dd#X\	.	.	.	.	.	.	.	.	.	.	.	.	.	.	.	.
16A\	.	.	.	.	.	.	.	.	.	.	.	.	.	.	.	.	.
.	32qqff#/LLL	.	.	.	.	.	.	.	.	.	.	.	.	.	.	.	.
.	32qqbb/JJJ	.	.	.	.	.	.	.	.	.	.	.	.	.	.	.	.
16G\	8ddd#X\	.	16BB/	.	pod-	16B\	pod-	.	16b\	pod-	.	16dd#X\	pod-	.	.	.	.
16F#\JJ	.	.	16BB/	.	-ła	16A#X\	-ła	.	16b\	-ła	.	16dd#\	-ła	.	.	.	.
=56	=56	=56	=56	=56	=56	=56	=56	=56	=56	=56	=56	=56	=56	=56	=56	=56	=56
!	!	!LO:DY:b	!	!	!	!	!	!	!	!	!	!	!	!	!	!	!
8.E\L	16.g\LL 16.b 16.ee	sf	4.E\	.	krew	4.G\	krew	.	4.b\	krew	.	4.ee\	krew	.	2.ryy	.	.
.	32g\JJk 32b 32ee	.	.	.	.	.	.	.	.	.	.	.	.	.	.	.	.
.	4g\ 4b 4ee	.	.	.	.	.	.	.	.	.	.	.	.	.	.	.	.
16E\L	.	.	.	.	.	.	.	.	.	.	.	.	.	.	.	.	.
16F#\	.	.	.	.	.	.	.	.	.	.	.	.	.	.	.	.	.
16G\JJ	.	.	.	.	.	.	.	.	.	.	.	.	.	.	.	.	.
8.C\L	16.g\LL 16.cc 16.ee	.	4C/	.	na	4G\	na	.	4cc\	na	.	4ee\	na	.	.	.	.
.	32g\JJk 32cc 32ee	.	.	.	.	.	.	.	.	.	.	.	.	.	.	.	.
.	4g\ 4cc 4ee	.	.	.	.	.	.	.	.	.	.	.	.	.	.	.	.
16C\L	.	.	.	.	.	.	.	.	.	.	.	.	.	.	.	.	.
16D\	.	.	16C/	.	nie-	16G\	nie-	.	16cc\	nie-	.	16ee\	nie-	.	.	.	.
16E\JJ	.	.	16C/	.	-go	16G\	-go	.	16cc\	-go	.	16ee\	-go	.	.	.	.
=57	=57	=57	=57	=57	=57	=57	=57	=57	=57	=57	=57	=57	=57	=57	=57	=57	=57
!	!	!LO:DY:b	!	!	!	!	!	!	!	!	!	!	!	!	!	!	!
8.AA/L	16.f#/LL 16.cc 16.ee	sf	[4AA/	.	spły-	[4A\	spły-	.	[4cc\	spły-	.	[4ee\	spły-	.	2.ryy	.	.
.	32f#/JJk 32cc 32ee	.	.	.	.	.	.	.	.	.	.	.	.	.	.	.	.
.	4f#\ 4cc 4ee	.	.	.	.	.	.	.	.	.	.	.	.	.	.	.	.
16C/L	.	.	.	.	.	.	.	.	.	.	.	.	.	.	.	.	.
16BB/	.	.	16AA/]	.	.	16A\]	.	.	16cc\]	.	.	16ee\]	.	.	.	.	.
16AA/JJ	.	.	16AA/	.	-nie	16A\	-nie	.	16cc\	-nie	.	16ee\	-nie	.	.	.	.
8.BB\L	16.f#/LL 16.b 16.dd#X	.	4BB/	.	niech	4B\	niech	.	4b\	niech	.	4dd#X\	niech	.	.	.	.
.	32f#/JJk 32b 32dd#	.	.	.	.	.	.	.	.	.	.	.	.	.	.	.	.
.	4f#/ 4b 4dd#	.	.	.	.	.	.	.	.	.	.	.	.	.	.	.	.
16B\L	.	.	.	.	.	.	.	.	.	.	.	.	.	.	.	.	.
16A#X\	.	.	16BB/	.	je-	16B\	je-	.	16b\	je-	.	16dd#\	je-	.	.	.	.
16B\JJ	.	.	16BB/	.	-go	16A\	-go	.	16b\	-go	.	16dd#\	-go	.	.	.	.
=58	=58	=58	=58	=58	=58	=58	=58	=58	=58	=58	=58	=58	=58	=58	=58	=58	=58
!	!	!LO:DY:b	!	!	!	!	!	!	!	!	!	!	!	!	!	!	!
8.E\L	16.g\LL 16.b 16.ee	sf	4.E\	.	pierś	4.G\	pierś	.	4.b\	pierś	.	4.ee\	pierś	.	2.ryy	.	.
.	32g\JJk 32b 32ee	.	.	.	.	.	.	.	.	.	.	.	.	.	.	.	.
.	4g\ 4b 4ee	.	.	.	.	.	.	.	.	.	.	.	.	.	.	.	.
16E\L	.	.	.	.	.	.	.	.	.	.	.	.	.	.	.	.	.
16F#\	.	.	.	.	.	.	.	.	.	.	.	.	.	.	.	.	.
16G\JJ	.	.	.	.	.	.	.	.	.	.	.	.	.	.	.	.	.
8.C\L	16.g\LL 16.cc 16.ee	.	4C/	.	ro-	4G\	ro-	.	4cc\	ro-	.	4ee\	ro-	.	.	.	.
.	32g\JJk 32cc 32ee	.	.	.	.	.	.	.	.	.	.	.	.	.	.	.	.
.	4g\ 4cc 4ee	.	.	.	.	.	.	.	.	.	.	.	.	.	.	.	.
16C\L	.	.	.	.	.	.	.	.	.	.	.	.	.	.	.	.	.
16D\	.	.	16C/	.	-ze-	16G\	-ze-	.	16cc\	-ze-	.	16ee\	-zed-	.	.	.	.
16E\JJ	.	.	16C/	.	-drze	16G\	-drze	.	16dd\	-drze	.	16ee\	-rze	.	.	.	.
!!LO:LB:g=original	!	!	!	!	!	!	!	!	!	!	!	!	!	!	!	!	!
=59	=59	=59	=59	=59	=59	=59	=59	=59	=59	=59	=59	=59	=59	=59	=59	=59	=59
!	!	!LO:DY:b	!	!	!	!	!	!	!	!	!	!	!	!	!	!	!
8.AA\L	16.f#/LL 16.cc 16.ee	sf	4AA/	.	kruk	4A\	kruk	.	4cc\	kruk	.	4ee\	kruk	.	2.ryy	.	.
.	32f#/JJk 32cc 32ee	.	.	.	.	.	.	.	.	.	.	.	.	.	.	.	.
.	4f#/ 4cc 4ee	.	.	.	.	.	.	.	.	.	.	.	.	.	.	.	.
16AA\L	.	.	.	.	.	.	.	.	.	.	.	.	.	.	.	.	.
16BB\	.	.	16AA/	.	niech	16A\	niech	.	16cc\	niech	.	16ff#\	niech	.	.	.	.
16C\JJ	.	.	16AA/	.	ro-	16A\	ro-	.	16cc\	ro-	.	16ee\	ro-	.	.	.	.
!	!	!LO:DY:b	!	!	!	!	!	!	!	!	!	!	!	!	!	!	!
8.BB\L	16.f#/LL 16.b 16.dd#X	sf	[4BB/	.	-ze-	(4F#\	-ze-	.	[4b\	-ze-	.	[4dd#X\	-ze-	.	.	.	.
.	32f#/JJk 32b 32dd#	.	.	.	.	.	.	.	.	.	.	.	.	.	.	.	.
.	4f#/ 4b 4dd#	.	.	.	.	.	.	.	.	.	.	.	.	.	.	.	.
16B\L	.	.	.	.	.	.	.	.	.	.	.	.	.	.	.	.	.
16A#X\	.	.	16BB/]	.	.	16B\)	.	.	16b\]	.	.	16dd#\]	.	.	.	.	.
16B\JJ	.	.	16BB/	.	-drze	16A\	-drze	.	16b\	-drze	.	16dd#\	-drze	.	.	.	.
=60	=60	=60	=60	=60	=60	=60	=60	=60	=60	=60	=60	=60	=60	=60	=60	=60	=60
8.G#X\L	16.fn/LL 16.b 16.dd#X	.	[4.G#X\	.	kruk!	[4.B\	kruk!	.	[4.ddn\	kruk!	.	[4.ddn\	kruk!	.	2.ryy	.	.
.	32f/JJk 32b 32dd#	.	.	.	.	.	.	.	.	.	.	.	.	.	.	.	.
!	!	!LO:DY:b	!	!	!	!	!	!	!	!	!	!	!	!	!	!	!
.	4f/ 4b 4dd#	sf	.	.	.	.	.	.	.	.	.	.	.	.	.	.	.
16dn\L	.	.	.	.	.	.	.	.	.	.	.	.	.	.	.	.	.
16f#\	.	.	.	.	.	.	.	.	.	.	.	.	.	.	.	.	.
16e\JJ	.	.	.	.	.	.	.	.	.	.	.	.	.	.	.	.	.
16d\LL	4.f/ 4.b 4.dd#	.	8G#\]	.	.	8B\]	.	.	8dd\]	.	.	8dd\]	.	.	.	.	.
16c\	.	.	.	.	.	.	.	.	.	.	.	.	.	.	.	.	.
16B\	.	.	8r	.	.	8r	.	.	8r	.	.	8r	.	.	.	.	.
16A\	.	.	.	.	.	.	.	.	.	.	.	.	.	.	.	.	.
16G#X\	.	.	16G#\	.	niech	16B\	niech	.	16dd\	niech	.	16dd\	niech	.	.	.	.
16B\JJ	.	.	16G#\	.	ta	16B\	ta	.	16dd\	ta	.	16dd\	ta	.	.	.	.
=61	=61	=61	=61	=61	=61	=61	=61	=61	=61	=61	=61	=61	=61	=61	=61	=61	=61
8.A\L	16.e/LL 16.a 16.cc	.	4.A\	.	po-	4.A\	po-	.	4.cc\	po-	.	4.ee\	po-	.	2.ryy	.	.
.	32e/JJk 32a 32cc	.	.	.	.	.	.	.	.	.	.	.	.	.	.	.	.
.	4e/ 4a 4cc	.	.	.	.	.	.	.	.	.	.	.	.	.	.	.	.
16c\L	.	.	.	.	.	.	.	.	.	.	.	.	.	.	.	.	.
16e\	.	.	.	.	.	.	.	.	.	.	.	.	.	.	.	.	.
16d\JJ	.	.	.	.	.	.	.	.	.	.	.	.	.	.	.	.	.
16c\LL	4.e/ 4.a 4.cc	.	4A\	.	-dła	4A\	-dła	.	4cc\	-dła	.	4ee\	-dła	.	.	.	.
16B\	.	.	.	.	.	.	.	.	.	.	.	.	.	.	.	.	.
16A\	.	.	.	.	.	.	.	.	.	.	.	.	.	.	.	.	.
16c\	.	.	.	.	.	.	.	.	.	.	.	.	.	.	.	.	.
16B\	.	.	16AA/	.	po-	16A\	po-	.	16cc\	po-	.	16ee\	pod-	.	.	.	.
16A\JJ	.	.	16AA/	.	-dła	16A\	-dła	.	16cc\	-dła	.	16ee\	-ła	.	.	.	.
=62	=62	=62	=62	=62	=62	=62	=62	=62	=62	=62	=62	=62	=62	=62	=62	=62	=62
8.BB\L 8.B	16.e/LL 16.g 16.ee	.	4.BB/	.	krew	4.G\	krew	.	4.b\	krew	.	4.ee\	krew	.	2.ryy	.	.
.	32e/JJk 32g 32ee	.	.	.	.	.	.	.	.	.	.	.	.	.	.	.	.
.	4e/ 4g 4ee	.	.	.	.	.	.	.	.	.	.	.	.	.	.	.	.
16B\L	.	.	.	.	.	.	.	.	.	.	.	.	.	.	.	.	.
16A#X\	.	.	.	.	.	.	.	.	.	.	.	.	.	.	.	.	.
16B\JJ	.	.	.	.	.	.	.	.	.	.	.	.	.	.	.	.	.
8.BB\L	16.f#/LL 16.b 16.dd#X	.	4BB/	.	na	4F#\	na	.	4b\	na	.	4dd#X\	na	.	.	.	.
.	32f#/JJk 32b 32dd#	.	.	.	.	.	.	.	.	.	.	.	.	.	.	.	.
.	4f#/ 4b 4dd#	.	.	.	.	.	.	.	.	.	.	.	.	.	.	.	.
16B\L	.	.	.	.	.	.	.	.	.	.	.	.	.	.	.	.	.
!	!	!	!	!	!	!	!	!LO:DY:a	!	!	!LO:DY:a	!	!	!LO:DY:a	!	!	!
16A#X\	.	.	16B\	f	nie-	16B\	nie-	f	16b\	nie-	f	16b\	nie-	f	.	.	.
16B\JJ	.	.	16B\	.	-go	16B\	-go	.	16b\	-go	.	16b\	-go	.	.	.	.
!!LO:LB:g=original	!	!	!	!	!	!	!	!	!	!	!	!	!	!	!	!
=63	=63	=63	=63	=63	=63	=63	=63	=63	=63	=63	=63	=63	=63	=63	=63	=63	=63
8.BB\L 8.B	16.e/LL 16.g 16.b 16.ee	.	4.B\	.	spły-	4.B\	spły-	.	4.b\	spły-	.	4.b\	spły-	.	2.ryy	.	.
.	32e/JJk 32g 32b 32ee	.	.	.	.	.	.	.	.	.	.	.	.	.	.	.	.
.	4e/ 4g 4b 4ee	.	.	.	.	.	.	.	.	.	.	.	.	.	.	.	.
16B\L	.	.	.	.	.	.	.	.	.	.	.	.	.	.	.	.	.
16A#X\	.	.	.	.	.	.	.	.	.	.	.	.	.	.	.	.	.
16B\JJ	.	.	.	.	.	.	.	.	.	.	.	.	.	.	.	.	.
8.BB\L	16.f#/LL 16.b 16.dd#X	.	8B\	.	-nie	8B\	-nie	.	8b\	-nie	.	8b\	-nie	.	.	.	.
.	32f#/JJk 32b 32dd#	.	.	.	.	.	.	.	.	.	.	.	.	.	.	.	.
.	4f#/ 4b 4dd#	.	8r	.	.	8r	.	.	8r	.	.	8r	.	.	.	.	.
16B\L	.	.	.	.	.	.	.	.	.	.	.	.	.	.	.	.	.
16A#X\	.	.	16B\	.	je-	16B\	je-	.	16b\	je-	.	16b\	je-	.	.	.	.
16B\JJ	.	.	16B\	.	-go	16B\	-go	.	16b\	-go	.	16b\	-go	.	.	.	.
=64	=64	=64	=64	=64	=64	=64	=64	=64	=64	=64	=64	=64	=64	=64	=64	=64	=64
!	!LO:TX:b:i:t=animato.	!	!	!	!	!	!	!	!	!	!	!	!	!	!	!	!
8E\L	8e/L 8g 8ee	.	[8E\	.	pierś	[8E\	pierś	.	[8e/	pierś	.	[8e/	pierś	.	2.ryy	.	.
16E\L	16e/L	.	16E\]	.	.	16E\]	.	.	16e/]	.	.	16e/]	.	.	.	.	.
16G\	16g/	.	16G\	.	niech	16G\	niech	.	16g/	niech	.	16g/	niech	.	.	.	.
16F#\	16f#/	.	16F#\	.	je-	16F#\	je-	.	16f#/	je-	.	16f#/	je-	.	.	.	.
16E\JJ	16e/JJ	.	16E\	.	-go	16E\	-go	.	16e/	-go	.	16e/	-go	.	.	.	.
8A^\L	8a^/L	.	4A\	.	pierś	4A\	pierś	.	4a/	pierś	.	4a/	pierś	.	.	.	.
8A^\	8a^/	.	.	.	.	.	.	.	.	.	.	.	.	.	.	.	.
8G^\J	8g^/J	.	8G\	.	ro-	8G\	ro-	.	8g/	ro-	.	8g/	ro-	.	.	.	.
=65	=65	=65	=65	=65	=65	=65	=65	=65	=65	=65	=65	=65	=65	=65	=65	=65	=65
4F#^\	4f#^/	.	(4F#\	.	-ze-	(4F#\	-ze-	.	(4f#/	-ze-	.	(4f#/	-ze-	.	2.ryy	.	.
16G\LL	16g/LL	.	16G\)	.	.	16G\)	.	.	16g/)	.	.	16g/)	.	.	.	.	.
16A\JJ	16a/JJ	.	16A\	.	-drze	16A\	-drze	.	16a/	-drze	.	16a/	-drze	.	.	.	.
8B\L	16b\LL	.	8B\	.	ro-	8B\	ro-	.	8b\	ro-	.	8b\	ro-	.	.	.	.
.	32fn\L	.	.	.	.	.	.	.	.	.	.	.	.	.	.	.	.
.	32ffn\JJJ	.	.	.	.	.	.	.	.	.	.	.	.	.	.	.	.
8D\ 8Fn 8G#X 8B	32g#X\LLL	.	8.B\	.	-ze-	8.B\	-ze-	.	8.b\	-ze-	.	8.b\	-ze-	.	.	.	.
.	32gg#X\	.	.	.	.	.	.	.	.	.	.	.	.	.	.	.	.
.	32bn\	.	.	.	.	.	.	.	.	.	.	.	.	.	.	.	.
.	32bbn\JJJ	.	.	.	.	.	.	.	.	.	.	.	.	.	.	.	.
8D\J 8F 8G# 8B	32dd\LLL	.	.	.	.	.	.	.	.	.	.	.	.	.	.	.	.
.	32ddd\	.	.	.	.	.	.	.	.	.	.	.	.	.	.	.	.
.	32ee\	.	16B\	.	-drze	16B\	-drze	.	16b\	-drze	.	16b\	-drze	.	.	.	.
.	32eee\JJJ	.	.	.	.	.	.	.	.	.	.	.	.	.	.	.	.
!!LO:LB:g=original	!	!	!	!	!	!	!	!	!	!	!	!	!	!	!	!
=66	=66	=66	=66	=66	=66	=66	=66	=66	=66	=66	=66	=66	=66	=66	=66	=66	=66
4C\ 4Fn 4A 4c	32ffn\LLL	.	[2.c\	.	kruk!	[2.c\	kruk!	.	[2.cc\	kruk!	.	[2.cc\	kruk!	.	2.ryy	.	.
.	32aa\	.	.	.	.	.	.	.	.	.	.	.	.	.	.	.	.
.	32ccc\	.	.	.	.	.	.	.	.	.	.	.	.	.	.	.	.
.	32fffn\JJJ	.	.	.	.	.	.	.	.	.	.	.	.	.	.	.	.
.	32ff\LLL	.	.	.	.	.	.	.	.	.	.	.	.	.	.	.	.
.	32fff\	.	.	.	.	.	.	.	.	.	.	.	.	.	.	.	.
.	32ff\	.	.	.	.	.	.	.	.	.	.	.	.	.	.	.	.
.	32fff\JJJ	.	.	.	.	.	.	.	.	.	.	.	.	.	.	.	.
8C\ 8G 8B 8c	32gg\LLL	.	.	.	.	.	.	.	.	.	.	.	.	.	.	.	.
.	32bb-X\	.	.	.	.	.	.	.	.	.	.	.	.	.	.	.	.
.	32ccc\	.	.	.	.	.	.	.	.	.	.	.	.	.	.	.	.
.	32eee\JJJ	.	.	.	.	.	.	.	.	.	.	.	.	.	.	.	.
4C\ 4F 4A 4c	32ff\LLL	.	.	.	.	.	.	.	.	.	.	.	.	.	.	.	.
.	32aa\	.	.	.	.	.	.	.	.	.	.	.	.	.	.	.	.
.	32ccc\	.	.	.	.	.	.	.	.	.	.	.	.	.	.	.	.
.	32fff\JJJ	.	.	.	.	.	.	.	.	.	.	.	.	.	.	.	.
.	32ff\LLL	.	.	.	.	.	.	.	.	.	.	.	.	.	.	.	.
.	32fff\	.	.	.	.	.	.	.	.	.	.	.	.	.	.	.	.
.	32ff\	.	.	.	.	.	.	.	.	.	.	.	.	.	.	.	.
.	32fff\JJJ	.	.	.	.	.	.	.	.	.	.	.	.	.	.	.	.
8C\ 8G 8B 8c	32gg\LLL	.	.	.	.	.	.	.	.	.	.	.	.	.	.	.	.
.	32bb-\	.	.	.	.	.	.	.	.	.	.	.	.	.	.	.	.
.	32ccc\	.	.	.	.	.	.	.	.	.	.	.	.	.	.	.	.
.	32eee\JJJ	.	.	.	.	.	.	.	.	.	.	.	.	.	.	.	.
=67	=67	=67	=67	=67	=67	=67	=67	=67	=67	=67	=67	=67	=67	=67	=67	=67	=67
4C\ 4F# 4A 4c	32ffn\LLL	.	4.c\]	.	.	4.c\]	.	.	4.cc\]	.	.	4.cc\]	.	.	2.ryy	.	.
.	32aa\	.	.	.	.	.	.	.	.	.	.	.	.	.	.	.	.
.	32ccc\	.	.	.	.	.	.	.	.	.	.	.	.	.	.	.	.
.	32fffn\JJJ	.	.	.	.	.	.	.	.	.	.	.	.	.	.	.	.
.	32ff\LLL	.	.	.	.	.	.	.	.	.	.	.	.	.	.	.	.
.	32fff\	.	.	.	.	.	.	.	.	.	.	.	.	.	.	.	.
.	32ff\	.	.	.	.	.	.	.	.	.	.	.	.	.	.	.	.
.	32fff\JJJ	.	.	.	.	.	.	.	.	.	.	.	.	.	.	.	.
8C\ 8G 8B-X 8c	32gg\LLL	.	.	.	.	.	.	.	.	.	.	.	.	.	.	.	.
.	32bb-X\	.	.	.	.	.	.	.	.	.	.	.	.	.	.	.	.
.	32ccc\	.	.	.	.	.	.	.	.	.	.	.	.	.	.	.	.
.	32eee\JJJ	.	.	.	.	.	.	.	.	.	.	.	.	.	.	.	.
4C\ 4F# 4A 4c	32ff\LLL	.	8c\	.	niech	8c\	niech	.	8cc\	niech	.	8cc\	niech	.	.	.	.
.	32aa\	.	.	.	.	.	.	.	.	.	.	.	.	.	.	.	.
.	32ccc\	.	.	.	.	.	.	.	.	.	.	.	.	.	.	.	.
.	32fff\JJJ	.	.	.	.	.	.	.	.	.	.	.	.	.	.	.	.
.	32ff\LLL	.	8A\	.	je-	8A\	je-	.	8a/	je-	.	8a/	je-	.	.	.	.
.	32fff\	.	.	.	.	.	.	.	.	.	.	.	.	.	.	.	.
.	32ff\	.	.	.	.	.	.	.	.	.	.	.	.	.	.	.	.
.	32fff\JJJ	.	.	.	.	.	.	.	.	.	.	.	.	.	.	.	.
8C\ 8G 8A#X 8c	32gg\LLL	.	8c\	.	-go	8c\	-go	.	8cc\	-go	.	8cc\	-go	.	.	.	.
.	32bb-\	.	.	.	.	.	.	.	.	.	.	.	.	.	.	.	.
.	32ccc\	.	.	.	.	.	.	.	.	.	.	.	.	.	.	.	.
.	32eee\JJJ	.	.	.	.	.	.	.	.	.	.	.	.	.	.	.	.
=68	=68	=68	=68	=68	=68	=68	=68	=68	=68	=68	=68	=68	=68	=68	=68	=68	=68
*	*8va	*	*	*	*	*	*	*	*	*	*	*	*	*	*	*	*
8BB\L 8E 8G 8B	32bbn\LLL 32eee 32ggg	.	4.B\	.	pierś	4.B\	pierś	.	4.b\	pierś	.	4.b\	pierś	.	2.ryy	.	.
.	32gg\	.	.	.	.	.	.	.	.	.	.	.	.	.	.	.	.
.	32bb\ 32eee 32ggg	.	.	.	.	.	.	.	.	.	.	.	.	.	.	.	.
.	32gg\JJJ	.	.	.	.	.	.	.	.	.	.	.	.	.	.	.	.
8BB\ 8E 8G 8B	32bb\LLL 32eee 32ggg	.	.	.	.	.	.	.	.	.	.	.	.	.	.	.	.
.	32gg\	.	.	.	.	.	.	.	.	.	.	.	.	.	.	.	.
.	32bb\ 32eee 32ggg	.	.	.	.	.	.	.	.	.	.	.	.	.	.	.	.
.	32gg\JJJ	.	.	.	.	.	.	.	.	.	.	.	.	.	.	.	.
8BB\J 8G 8B	32bb\LLL 32eee 32ggg	.	.	.	.	.	.	.	.	.	.	.	.	.	.	.	.
.	32gg\	.	.	.	.	.	.	.	.	.	.	.	.	.	.	.	.
.	32bb\ 32eee 32ggg	.	.	.	.	.	.	.	.	.	.	.	.	.	.	.	.
.	32gg\JJJ	.	.	.	.	.	.	.	.	.	.	.	.	.	.	.	.
8BB\L 8D#X 8F#X 8B	32bb\LLL 32ddd#X 32fff#X	.	8B\	.	ro-	8B\	ro-	.	8b\	ro-	.	8b\	ro-	.	.	.	.
.	32ff#\	.	.	.	.	.	.	.	.	.	.	.	.	.	.	.	.
.	32bb\ 32ddd# 32fff#	.	.	.	.	.	.	.	.	.	.	.	.	.	.	.	.
.	32ff#\JJJ	.	.	.	.	.	.	.	.	.	.	.	.	.	.	.	.
8BB\ 8D# 8F# 8B	32bb\LLL 32ddd# 32fff#X	.	8A\	.	-ze-	8A\	-ze-	.	8a/	-ze-	.	8cc#X\	-ze-	.	.	.	.
.	32ff#\	.	.	.	.	.	.	.	.	.	.	.	.	.	.	.	.
.	32bb\ 32ddd# 32fff#	.	.	.	.	.	.	.	.	.	.	.	.	.	.	.	.
.	32ff#\JJJ	.	.	.	.	.	.	.	.	.	.	.	.	.	.	.	.
8BB\J 8D# 8F# 8B	32bb\LLL 32ddd# 32fff#X	.	8F#\	.	-drze	8F#\	-drze	.	8a/	-drze	.	8dd#X\	-drze	.	.	.	.
.	32ff#\	.	.	.	.	.	.	.	.	.	.	.	.	.	.	.	.
.	32bb\ 32ddd# 32fff#	.	.	.	.	.	.	.	.	.	.	.	.	.	.	.	.
.	32ff#\JJJ	.	.	.	.	.	.	.	.	.	.	.	.	.	.	.	.
*	*X8va	*	*	*	*	*	*	*	*	*	*	*	*	*	*	*	*
!!LO:LB:g=original	!	!	!	!	!	!	!	!	!	!	!	!	!	!	!	!
!!LO:PB:g=original	!	!	!	!	!	!	!	!	!	!	!	!	!	!	!	!
=69	=69	=69	=69	=69	=69	=69	=69	=69	=69	=69	=69	=69	=69	=69	=69	=69	=69
8EE\ 8E	8e/ 8g 8b 8ee	.	4E\	.	kruk	4E\	kruk	.	4g/	kruk	.	4ee\	kruk	.	2.ryy	.	.
8c^\L	8cc\L	.	.	.	.	.	.	.	.	.	.	.	.	.	.	.	.
16A\L	16a\L	.	8r	.	.	8r	.	.	8r	.	.	8r	.	.	.	.	.
16G\JJ	16g\JJ	.	.	.	.	.	.	.	.	.	.	.	.	.	.	.	.
8F#\L	8f#\L	.	4r	.	.	4r	.	.	4r	.	.	4r	.	.	.	.	.
8d\	8dd^\	.	.	.	.	.	.	.	.	.	.	.	.	.	.	.	.
16B\L	16b\L	.	8r	.	.	8r	.	.	8r	.	.	8r	.	.	.	.	.
16A\JJ	16a\JJ	.	.	.	.	.	.	.	.	.	.	.	.	.	.	.	.
=70	=70	=70	=70	=70	=70	=70	=70	=70	=70	=70	=70	=70	=70	=70	=70	=70	=70
8E\L	8b\L	.	4r	.	.	4r	.	.	4r	.	.	4r	.	.	2.ryy	.	.
8e\J	8ee^\J	.	.	.	.	.	.	.	.	.	.	.	.	.	.	.	.
16c\LL	16cc\LL	.	8r	.	.	8r	.	.	8r	.	.	8r	.	.	.	.	.
16B\JJ	16b\JJ	.	.	.	.	.	.	.	.	.	.	.	.	.	.	.	.
8D\L 8A 8c	16a\LL	.	4r	.	.	4r	.	.	4r	.	.	4r	.	.	.	.	.
.	16b\	.	.	.	.	.	.	.	.	.	.	.	.	.	.	.	.
8D\ 8A 8c	16cc\	.	.	.	.	.	.	.	.	.	.	.	.	.	.	.	.
.	16dd\	.	.	.	.	.	.	.	.	.	.	.	.	.	.	.	.
8D\J 8A 8c	16ee\	.	16D\	.	je-	16A\	je-	.	16cc\	je-	.	16ee\LL	je-	.	.	.	.
.	16ff#\JJ	.	16D\	.	-go	16A\	-go	.	16cc\	-go	.	16ff#\JJ	-go	.	.	.	.
=71	=71	=71	=71	=71	=71	=71	=71	=71	=71	=71	=71	=71	=71	=71	=71	=71	=71
!	!	!	!	!	!	!	!	!LO:DY:a	!	!	!LO:DY:a	!	!	!LO:DY:a	!	!	!
!	!	!LO:DY:b	!	!	!	!	!	!	!	!	!	!	!	!	!	!	!
4GG\ 4G	4g\ 4b 4gg	sf	(4GG^>/	f	pierś	(4G^\	pierś	f	(4b^\	pierś	f	(4gg^\	pierś	f	2.ryy	.	.
16BB\LL 16B	16b\LL 16dd#X 16ff#	.	16BB/)	.	.	16B\)	.	.	16dd#X\)	.	.	16ff#\)	.	.	.	.	.
16BB\JJ 16B	16b\JJ 16ee	.	16BB/	.	ro-	16B\	ro-	.	16ee\	ro-	.	16ee\	ro-	.	.	.	.
!	!	!LO:DY:b	!	!	!	!	!	!	!	!	!	!	!	!	!	!	!
4BB\ 4B	4b\ 4dd# 4ff#	sf	(4BB^>/	.	-ze-	(4B^<\	-ze-	.	(4dd#^\	-ze-	.	4ff#^\	-ze-	.	.	.	.
16EE/LL 16E	16g\LL 16b 16ee	.	16E\)	.	.	16G\)	.	.	16b\)	.	.	16ee\	.	.	.	.	.
16EE/JJ 16E	16f#\JJ 16b 16dd#	.	16E\	.	-drze	16A\	-drze	.	16b\	-drze	.	16dd#X\	-drze	.	.	.	.
!!LO:LB:g=original	!	!	!	!	!	!	!	!	!	!	!	!	!	!	!	!
=72	=72	=72	=72	=72	=72	=72	=72	=72	=72	=72	=72	=72	=72	=72	=72	=72	=72
!	!	!LO:DY:b	!	!	!	!	!	!	!	!	!	!	!	!	!	!	!
4EE/ 4E	4g\ 4b 4ee	sf	4.E\	.	kruk	4.G\	kruk	.	4.b\	kruk	.	4.ee\	kruk	.	2.ryy	.	.
16EE/LL 16GG 16BB 16E	16e\LL 16g 16b 16ee	.	.	.	.	.	.	.	.	.	.	.	.	.	.	.	.
16EE/JJ 16GG 16BB 16E	16e\JJ 16g 16b 16ee	.	.	.	.	.	.	.	.	.	.	.	.	.	.	.	.
8EE/L 8GG 8BB 8E	8e\L 8g 8b 8ee	.	4E\	.	ro-	4G\	ro-	.	4b\	ro-	.	4ee\	ro-	.	.	.	.
8EE/ 8GG 8BB 8E	8e\ 8g 8b 8ee	.	.	.	.	.	.	.	.	.	.	.	.	.	.	.	.
8EE/J 8GG 8BB 8E	8e\J 8g 8b 8ee	.	16E\	.	-ze-	16G\	-ze-	.	16b\	-ze-	.	16ee\	-ze-	.	.	.	.
.	.	.	16E\	.	-drze	16G\	-drze	.	16b\	-drze	.	16ee\	-drze	.	.	.	.
=73	=73	=73	=73	=73	=73	=73	=73	=73	=73	=73	=73	=73	=73	=73	=73	=73	=73
!	!	!LO:DY:b	!	!	!	!	!	!	!	!	!	!	!	!	!	!	!
4EE/ 4GG 4BB 4E	16e\LL 16g 16b 16ee	ff	4.E\	.	kruk!	4.G\	kruk!	.	4.b\	kruk!	.	4.ee\	kruk!	.	2.ryy	.	.
.	16ee\	.	.	.	.	.	.	.	.	.	.	.	.	.	.	.	.
.	16ff#\	.	.	.	.	.	.	.	.	.	.	.	.	.	.	.	.
.	16ee\	.	.	.	.	.	.	.	.	.	.	.	.	.	.	.	.
16E\LL 16e	16gg\	.	.	.	.	.	.	.	.	.	.	.	.	.	.	.	.
16E\JJ 16e	16ff#\JJ	.	.	.	.	.	.	.	.	.	.	.	.	.	.	.	.
8E\L 8e	16aa\LL	.	4r	.	.	4r	.	.	4r	.	.	4r	.	.	.	.	.
.	16gg\	.	.	.	.	.	.	.	.	.	.	.	.	.	.	.	.
8BB\ 8B	16bb\	.	.	.	.	.	.	.	.	.	.	.	.	.	.	.	.
.	16aa#X\	.	.	.	.	.	.	.	.	.	.	.	.	.	.	.	.
8GG\J 8G	16ccc\	.	8ryy	.	.	8r	.	.	8r	.	.	8r	.	.	.	.	.
.	16bb\JJ	.	.	.	.	.	.	.	.	.	.	.	.	.	.	.	.
=74	=74	=74	=74	=74	=74	=74	=74	=74	=74	=74	=74	=74	=74	=74	=74	=74	=74
!	!	!LO:DY:b	!	!	!	!	!	!	!	!	!	!	!	!	!	!	!
2.EE/ 2.E	2.ee\ 2.gg 2.eee	ff	2.r	.	.	2.r	.	.	2.r	.	.	2.r	.	.	2.ryy	.	.
=75||	=75||	=75||	=75||	=75||	=75||	=75||	=75||	=75||	=75||	=75||	=75||	=75||	=75||	=75||	=75||	=75||	=75||
*M4/4	*M4/4	*	*M4/4	*	*	*M4/4	*	*	*M4/4	*	*	*M4/4	*	*	*M4/4	*	*
*met(c)	*met(c)	*	*met(c)	*	*	*met(c)	*	*	*met(c)	*	*	*met(c)	*	*	*met(c)	*	*
*^	*	*	*	*	*	*	*	*	*	*	*	*	*	*	*	*	*
!	!	!LO:TX:a:i:t=agitato.	!	!	!	!	!	!	!	!	!	!	!	!	!	!	!	!
!	!	!	!LO:DY:b	!	!	!	!	!	!	!	!	!	!	!	!	!	!	!
*	*	*tuplet	*	*	*	*	*	*	*	*	*	*	*	*	*	*	*	*
(<4G/	1BB	(24B/LL	mf	1r	.	.	1r	.	.	1r	.	.	1r	.	.	1ryy	.	.
.	.	24A#X/	.	.	.	.	.	.	.	.	.	.	.	.	.	.	.	.
.	.	24B/	.	.	.	.	.	.	.	.	.	.	.	.	.	.	.	.
.	.	24A#/	.	.	.	.	.	.	.	.	.	.	.	.	.	.	.	.
.	.	24B/	.	.	.	.	.	.	.	.	.	.	.	.	.	.	.	.
.	.	24A#/JJ	.	.	.	.	.	.	.	.	.	.	.	.	.	.	.	.
4F#/	.	24B/LL	.	.	.	.	.	.	.	.	.	.	.	.	.	.	.	.
.	.	24A#/	.	.	.	.	.	.	.	.	.	.	.	.	.	.	.	.
.	.	24B/	.	.	.	.	.	.	.	.	.	.	.	.	.	.	.	.
.	.	24A#/	.	.	.	.	.	.	.	.	.	.	.	.	.	.	.	.
.	.	24B/	.	.	.	.	.	.	.	.	.	.	.	.	.	.	.	.
.	.	24A#/JJ	.	.	.	.	.	.	.	.	.	.	.	.	.	.	.	.
4Fn/	.	24B/LL	.	.	.	.	.	.	.	.	.	.	.	.	.	.	.	.
.	.	24A#/	.	.	.	.	.	.	.	.	.	.	.	.	.	.	.	.
.	.	24B/	.	.	.	.	.	.	.	.	.	.	.	.	.	.	.	.
.	.	24A#/	.	.	.	.	.	.	.	.	.	.	.	.	.	.	.	.
.	.	24B/	.	.	.	.	.	.	.	.	.	.	.	.	.	.	.	.
.	.	24A#/JJ	.	.	.	.	.	.	.	.	.	.	.	.	.	.	.	.
4E/)	.	24B/LL	.	.	.	.	.	.	.	.	.	.	.	.	.	.	.	.
.	.	24A#/	.	.	.	.	.	.	.	.	.	.	.	.	.	.	.	.
.	.	24B/	.	.	.	.	.	.	.	.	.	.	.	.	.	.	.	.
.	.	24A#/	.	.	.	.	.	.	.	.	.	.	.	.	.	.	.	.
.	.	24B/	.	.	.	.	.	.	.	.	.	.	.	.	.	.	.	.
.	.	24A#/JJ)	.	.	.	.	.	.	.	.	.	.	.	.	.	.	.	.
=76	=76	=76	=76	=76	=76	=76	=76	=76	=76	=76	=76	=76	=76	=76	=76	=76	=76	=76
!	!	!	!	!	!	!	!	!	!	!	!	!	!	!	!	!LO:TX:a:B:t=AZAEL. recitativo.	!	!
2D#X/	2BB\	2B/	.	1ryy	.	.	1ryy	.	.	1ryy	.	.	1ryy	.	.	4b\	I	.
!	!	!	!	!	!	!	!	!	!	!	!	!	!	!	!	!	!	!
.	.	.	.	.	.	.	.	.	.	.	.	.	.	.	.	8b\	gro-	.
.	.	.	.	.	.	.	.	.	.	.	.	.	.	.	.	8b\	-źny	.
2r	2ryy	2r	.	.	.	.	.	.	.	.	.	.	.	.	.	4b\	król	.
.	.	.	.	.	.	.	.	.	.	.	.	.	.	.	.	8b\	o-	.
.	.	.	.	.	.	.	.	.	.	.	.	.	.	.	.	8ccn\	-bu-	.
*v	*v	*	*	*	*	*	*	*	*	*	*	*	*	*	*	*	*	*
=77	=77	=77	=77	=77	=77	=77	=77	=77	=77	=77	=77	=77	=77	=77	=77	=77	=77
1r	1r	.	1ryy	.	.	1ryy	.	.	1ryy	.	.	1ryy	.	.	4.dd#X\	-rącz	.
.	.	.	.	.	.	.	.	.	.	.	.	.	.	.	8ee\	uch-	.
.	.	.	.	.	.	.	.	.	.	.	.	.	.	.	4.ff#\	-wy-	.
.	.	.	.	.	.	.	.	.	.	.	.	.	.	.	8b\	-cił	.
=78	=78	=78	=78	=78	=78	=78	=78	=78	=78	=78	=78	=78	=78	=78	=78	=78	=78
*	*	*	*	*	*	*	*	*	*	*	*	*	*	*	*Xtuplet	*	*
2r	2r	.	1ryy	.	.	1ryy	.	.	1ryy	.	.	1ryy	.	.	[6ee\	wios-	.
.	.	.	.	.	.	.	.	.	.	.	.	.	.	.	12ee\]	.	.
.	.	.	.	.	.	.	.	.	.	.	.	.	.	.	4gg\	-ło,	.
!	!	!	!	!	!	!	!	!	!	!	!	!	!	!	!LO:TX:a:B:t=tempo.	!	!
(4Cn\ 4cn	(24e/LL	.	.	.	.	.	.	.	.	.	.	.	.	.	2r	.	.
.	24d#X/	.	.	.	.	.	.	.	.	.	.	.	.	.	.	.	.
.	24e/	.	.	.	.	.	.	.	.	.	.	.	.	.	.	.	.
.	24d#/	.	.	.	.	.	.	.	.	.	.	.	.	.	.	.	.
.	24e/	.	.	.	.	.	.	.	.	.	.	.	.	.	.	.	.
.	24d#/JJ)	.	.	.	.	.	.	.	.	.	.	.	.	.	.	.	.
4BB\ 4B	(24e/LL	.	.	.	.	.	.	.	.	.	.	.	.	.	.	.	.
.	24d#/	.	.	.	.	.	.	.	.	.	.	.	.	.	.	.	.
.	24e/	.	.	.	.	.	.	.	.	.	.	.	.	.	.	.	.
.	24d#/	.	.	.	.	.	.	.	.	.	.	.	.	.	.	.	.
.	24e/	.	.	.	.	.	.	.	.	.	.	.	.	.	.	.	.
.	24d#/JJ)	.	.	.	.	.	.	.	.	.	.	.	.	.	.	.	.
=79	=79	=79	=79	=79	=79	=79	=79	=79	=79	=79	=79	=79	=79	=79	=79	=79	=79
4AA\ 4A	(24e/LL	.	1ryy	.	.	1ryy	.	.	1ryy	.	.	1ryy	.	.	8r	.	.
.	24d#X/	.	.	.	.	.	.	.	.	.	.	.	.	.	.	.	.
.	24e/	.	.	.	.	.	.	.	.	.	.	.	.	.	.	.	.
!	!	!	!	!	!	!	!	!	!	!	!	!	!	!	!LO:TX:a:B:t=recit.	!	!
.	24d#/	.	.	.	.	.	.	.	.	.	.	.	.	.	8cc#X\	po-	.
.	24e/	.	.	.	.	.	.	.	.	.	.	.	.	.	.	.	.
.	24d#/JJ)	.	.	.	.	.	.	.	.	.	.	.	.	.	.	.	.
4GG\ 4G	(24e/LL	.	.	.	.	.	.	.	.	.	.	.	.	.	8cc#\	-trza-	.
.	24d#/	.	.	.	.	.	.	.	.	.	.	.	.	.	.	.	.
.	24e/	.	.	.	.	.	.	.	.	.	.	.	.	.	.	.	.
.	24dn/	.	.	.	.	.	.	.	.	.	.	.	.	.	8cc#\	-skał	.
.	24c#X/	.	.	.	.	.	.	.	.	.	.	.	.	.	.	.	.
.	24B/JJ)	.	.	.	.	.	.	.	.	.	.	.	.	.	.	.	.
2FF#\) 2F#	2A#X/ 2f#	.	.	.	.	.	.	.	.	.	.	.	.	.	(4cc#\	w miaz-	.
.	.	.	.	.	.	.	.	.	.	.	.	.	.	.	8a#X/)	.	.
.	.	.	.	.	.	.	.	.	.	.	.	.	.	.	8gn/	-gi	.
!!LO:LB:g=original	!	!	!	!	!	!	!	!	!	!	!	!	!	!	!	!
=80	=80	=80	=80	=80	=80	=80	=80	=80	=80	=80	=80	=80	=80	=80	=80	=80	=80
2r	2r	.	1ryy	.	.	1ryy	.	.	1ryy	.	.	1ryy	.	.	8.f#/	na	.
.	.	.	.	.	.	.	.	.	.	.	.	.	.	.	16f#/	Woj-	.
.	.	.	.	.	.	.	.	.	.	.	.	.	.	.	8.f#/	-cie-	.
.	.	.	.	.	.	.	.	.	.	.	.	.	.	.	16f#/	-cha	.
!	!	!	!	!	!	!	!	!	!	!	!	!	!	!	!LO:TX:a:i:t=rall.	!	!
2FF#/ 2F#	2f#^/	.	.	.	.	.	.	.	.	.	.	.	.	.	4f#/	czo-	.
.	.	.	.	.	.	.	.	.	.	.	.	.	.	.	8g#X/	.	.
.	.	.	.	.	.	.	.	.	.	.	.	.	.	.	8a#X/	-le:	.
=81	=81	=81	=81	=81	=81	=81	=81	=81	=81	=81	=81	=81	=81	=81	=81	=81	=81
4FF#/ 4F#	2r	.	1ryy	.	.	1ryy	.	.	1ryy	.	.	1ryy	.	.	4b\	<<Idź,	.
!	!	!	!	!	!	!	!	!	!	!	!	!	!	!	!LO:TX:a:i:t=accelerando.	!	!
4EE/ 4E	.	.	.	.	.	.	.	.	.	.	.	.	.	.	8.b\	rze-	.
.	.	.	.	.	.	.	.	.	.	.	.	.	.	.	16b\	-cze,	.
4DD/ 4D	4B/ 4f# 4b	.	.	.	.	.	.	.	.	.	.	.	.	.	4.ccn\	w pie-	.
8.DD#X/L 8.D#X	4B/	.	.	.	.	.	.	.	.	.	.	.	.	.	.	.	.
.	.	.	.	.	.	.	.	.	.	.	.	.	.	.	8cc\	-kło;	.
16DD#/Jk 16D#	.	.	.	.	.	.	.	.	.	.	.	.	.	.	.	.	.
=82	=82	=82	=82	=82	=82	=82	=82	=82	=82	=82	=82	=82	=82	=82	=82	=82	=82
!	!	!LO:HP:b:t=cres.	!	!	!	!	!	!	!	!	!	!	!	!	!	!	!
4.EE/ 4.E	(16c/LL	<	1ryy	.	.	1ryy	.	.	1ryy	.	.	1ryy	.	.	[4cc\	pie-	.
.	16B/	.	.	.	.	.	.	.	.	.	.	.	.	.	.	.	.
.	16c/	.	.	.	.	.	.	.	.	.	.	.	.	.	.	.	.
.	16B/JJ)	.	.	.	.	.	.	.	.	.	.	.	.	.	.	.	.
.	8c/	.	.	.	.	.	.	.	.	.	.	.	.	.	8.cc\]	.	.
8EE/ 8E	8r	.	.	.	.	.	.	.	.	.	.	.	.	.	.	.	.
.	.	.	.	.	.	.	.	.	.	.	.	.	.	.	16cc\	-kło	.
4.EE#X/ 4.E#X	(16c#X/LL	.	.	.	.	.	.	.	.	.	.	.	.	.	[4dd\	cię	.
.	16B/	.	.	.	.	.	.	.	.	.	.	.	.	.	.	.	.
.	16c#/	.	.	.	.	.	.	.	.	.	.	.	.	.	.	.	.
.	16B/JJ)	.	.	.	.	.	.	.	.	.	.	.	.	.	.	.	.
.	8c#/	.	.	.	.	.	.	.	.	.	.	.	.	.	8dd\]	.	.
8EE#/ 8E#	8r	.	.	.	.	.	.	.	.	.	.	.	.	.	8dd\	przy-	.
!!LO:LB:g=original	!	!	!	!	!	!	!	!	!	!	!	!	!	!	!	!
!!LO:PB:g=original	!	!	!	!	!	!	!	!	!	!	!	!	!	!	!	!
=83	=83	=83	=83	=83	=83	=83	=83	=83	=83	=83	=83	=83	=83	=83	=83	=83	=83
!	!	!LO:HP:b:t= - cen -	!	!	!	!	!	!	!	!	!	!	!	!	!	!	!
4.FF#X\ 4.F#X	(16d/LL	<	1ryy	.	.	1ryy	.	.	1ryy	.	.	1ryy	.	.	2ee-X\	-nio-	.
.	16c#X/	.	.	.	.	.	.	.	.	.	.	.	.	.	.	.	.
.	16d/	.	.	.	.	.	.	.	.	.	.	.	.	.	.	.	.
.	16c#/JJ)	.	.	.	.	.	.	.	.	.	.	.	.	.	.	.	.
.	8d/	.	.	.	.	.	.	.	.	.	.	.	.	.	.	.	.
8FF#\ 8F#	8r	.	.	.	.	.	.	.	.	.	.	.	.	.	.	.	.
4.GGn\ 4.Gn	(16e-X/LL	.	.	.	.	.	.	.	.	.	.	.	.	.	4e-X/	-sło!	.
.	16d/	.	.	.	.	.	.	.	.	.	.	.	.	.	.	.	.
.	16e-/	.	.	.	.	.	.	.	.	.	.	.	.	.	.	.	.
.	16d/JJ	.	.	.	.	.	.	.	.	.	.	.	.	.	.	.	.
!	!	!LO:HP:b:t= - do.	!	!	!	!	!	!	!	!	!	!	!	!	!	!	!
.	16e-/LL	<	.	.	.	.	.	.	.	.	.	.	.	.	8r	.	.
.	16d/	.	.	.	.	.	.	.	.	.	.	.	.	.	.	.	.
8GG\ 8G	16e-/	.	.	.	.	.	.	.	.	.	.	.	.	.	8e-/	speł-	.
.	16d/JJ)	.	.	.	.	.	.	.	.	.	.	.	.	.	.	.	.
=84	=84	=84	=84	=84	=84	=84	=84	=84	=84	=84	=84	=84	=84	=84	=84	=84	=84
!	!LO:TX:b:B:t=a tempo.	!	!	!	!	!	!	!	!	!	!	!	!	!	!	!	!
2GG\ 2G	2B-X/ 2e-X	.	1ryy	.	.	1ryy	.	.	1ryy	.	.	1ryy	.	.	4.b-X\	-nio-	.
.	.	.	.	.	.	.	.	.	.	.	.	.	.	.	8e-X/	-ny	.
2GG\ 2G	2B-/ 2e-	.	.	.	.	.	.	.	.	.	.	.	.	.	4.e-/	wy-	.
.	.	.	.	.	.	.	.	.	.	.	.	.	.	.	8e-/	-rok,	.
=85	=85	=85	=85	=85	=85	=85	=85	=85	=85	=85	=85	=85	=85	=85	=85	=85	=85
2AA-X\ 2A-X	2c-X^/ 2e-X	.	1ryy	.	.	1ryy	.	.	1ryy	.	.	1ryy	.	.	8cc-X\	my	.
.	.	.	.	.	.	.	.	.	.	.	.	.	.	.	8cc-\	za	.
.	.	.	.	.	.	.	.	.	.	.	.	.	.	.	8a-X/	bran-	.
.	.	.	.	.	.	.	.	.	.	.	.	.	.	.	8fn/	-ką	.
4BB-X\ 4B-X	4B/	.	.	.	.	.	.	.	.	.	.	.	.	.	(4.d/	w po-	.
(8BB-\L 8B-	4d/ 4fn	.	.	.	.	.	.	.	.	.	.	.	.	.	.	.	.
!	!	!	!	!	!	!	!	!	!	!	!	!	!	!	!LO:N:vis=16	!	!
8AA-\J 8A-	.	.	.	.	.	.	.	.	.	.	.	.	.	.	8f/)	.	.
=86	=86	=86	=86	=86	=86	=86	=86	=86	=86	=86	=86	=86	=86	=86	=86	=86	=86
4GG-X\) 4G-X	[2B-X/ [2e-X	.	1ryy	.	.	1ryy	.	.	1ryy	.	.	1ryy	.	.	2e-X/	-le!>>	.
(16GG-/LL	.	.	.	.	.	.	.	.	.	.	.	.	.	.	.	.	.
16AA-X/	.	.	.	.	.	.	.	.	.	.	.	.	.	.	.	.	.
16BB-X/	.	.	.	.	.	.	.	.	.	.	.	.	.	.	.	.	.
16GG-/JJ)	.	.	.	.	.	.	.	.	.	.	.	.	.	.	.	.	.
4EE/	4B-/] 4e-]	.	.	.	.	.	.	.	.	.	.	.	.	.	4r	.	.
4r	4r	.	.	.	.	.	.	.	.	.	.	.	.	.	8g/L	Ko-	.
.	.	.	.	.	.	.	.	.	.	.	.	.	.	.	8b-X/J	.	.
!!LO:LB:g=original	!	!	!	!	!	!	!	!	!	!	!	!	!	!	!	!
=87	=87	=87	=87	=87	=87	=87	=87	=87	=87	=87	=87	=87	=87	=87	=87	=87	=87
(2GG-X/	8r	.	1ryy	.	.	1ryy	.	.	1ryy	.	.	1ryy	.	.	4ee-X\	-na-	.
!	!LO:TX:b:i:t=piu lento.	!	!	!	!	!	!	!	!	!	!	!	!	!	!	!	!
.	(8e-X\L 8ee-X	.	.	.	.	.	.	.	.	.	.	.	.	.	.	.	.
.	8e-\ 8ee-	.	.	.	.	.	.	.	.	.	.	.	.	.	4ee-\	-jąc	.
.	8b-X\J)	.	.	.	.	.	.	.	.	.	.	.	.	.	.	.	.
4E-X\)	8r	.	.	.	.	.	.	.	.	.	.	.	.	.	4r	.	.
.	(8e-\L 8ee-	.	.	.	.	.	.	.	.	.	.	.	.	.	.	.	.
4r	8e-\ 8ee-	.	.	.	.	.	.	.	.	.	.	.	.	.	4ee-\	padł	.
.	8b-\J)	.	.	.	.	.	.	.	.	.	.	.	.	.	.	.	.
=88	=88	=88	=88	=88	=88	=88	=88	=88	=88	=88	=88	=88	=88	=88	=88	=88	=88
(2GG#X/	8r	.	1ryy	.	.	1ryy	.	.	1ryy	.	.	1ryy	.	.	4.een\	Woj-	.
.	(8en\L 8een	.	.	.	.	.	.	.	.	.	.	.	.	.	.	.	.
.	8e\ 8ee	.	.	.	.	.	.	.	.	.	.	.	.	.	.	.	.
!	!	!	!	!	!	!	!	!	!	!	!	!	!	!	!LO:TX:a:i:t=piu lento.	!	!
.	8bn\J)	.	.	.	.	.	.	.	.	.	.	.	.	.	8ee\	-ciech	.
4E#X\)	8r	.	.	.	.	.	.	.	.	.	.	.	.	.	4ee\	u	.
.	(8e\L 8ee	.	.	.	.	.	.	.	.	.	.	.	.	.	.	.	.
4r	8e\ 8ee	.	.	.	.	.	.	.	.	.	.	.	.	.	8ee\	stóp	.
.	8b\J)	.	.	.	.	.	.	.	.	.	.	.	.	.	8ee\	a-	.
=89	=89	=89	=89	=89	=89	=89	=89	=89	=89	=89	=89	=89	=89	=89	=89	=89	=89
(2AAn/	8r	.	1ryy	.	.	1ryy	.	.	1ryy	.	.	1ryy	.	.	4.en/	-nio-	.
.	(8e\L 8ee	.	.	.	.	.	.	.	.	.	.	.	.	.	.	.	.
.	8e\ 8ee	.	.	.	.	.	.	.	.	.	.	.	.	.	.	.	.
.	8cc#X\J)	.	.	.	.	.	.	.	.	.	.	.	.	.	8e/	-ła,	.
4E\)	8r	.	.	.	.	.	.	.	.	.	.	.	.	.	4ee\	słów	.
.	(8e\L 8ee	.	.	.	.	.	.	.	.	.	.	.	.	.	.	.	.
4r	8e\ 8ee	.	.	.	.	.	.	.	.	.	.	.	.	.	8ee\	bos-	.
.	8cc#\J)	.	.	.	.	.	.	.	.	.	.	.	.	.	8ee\	-kich	.
=90	=90	=90	=90	=90	=90	=90	=90	=90	=90	=90	=90	=90	=90	=90	=90	=90	=90
2AA#X^/	8r	.	1ryy	.	.	1ryy	.	.	1ryy	.	.	1ryy	.	.	8ee\	księ-	.
.	(8e\L 8ee	.	.	.	.	.	.	.	.	.	.	.	.	.	8ee\	-ga	.
.	8e\ 8ee	.	.	.	.	.	.	.	.	.	.	.	.	.	8ee\	z-je	.
.	8cc#X\J)	.	.	.	.	.	.	.	.	.	.	.	.	.	8ee\	-go	.
!	!	!	!	!	!	!	!	!	!	!	!	!	!	!	!	!	!LO:HP:a:t=dim.
4BB/	(8ee\L	.	.	.	.	.	.	.	.	.	.	.	.	.	4.dd#X\	rąk	>
.	8g#X\	.	.	.	.	.	.	.	.	.	.	.	.	.	.	.	.
4BB#X/	8dd#X\	.	.	.	.	.	.	.	.	.	.	.	.	.	.	.	.
.	8f#X\J)	.	.	.	.	.	.	.	.	.	.	.	.	.	8dd#\	wy-	.
!!LO:LB:g=original	!	!	!	!	!	!	!	!	!	!	!	!	!	!	!	!
=91	=91	=91	=91	=91	=91	=91	=91	=91	=91	=91	=91	=91	=91	=91	=91	=91	=91
4C#X/	[2en/ [2cc#X	.	1ryy	.	.	1ryy	.	.	4cc\yy	.	.	1ryy	.	.	4cc#X\	-pla-	.
8E\L	.	.	.	.	.	.	.	.	4ryy	.	.	.	.	.	4cc#\	-ta;	.
8G#X\J	.	.	.	.	.	.	.	.	.	.	.	.	.	.	.	.	.
4c#X\	4e/] 4cc#]	.	.	.	.	.	.	.	2ryy	.	.	.	.	.	8r	.	.
.	.	.	.	.	.	.	.	.	.	.	.	.	.	.	8cc#\	a	.
4r	4r	.	.	.	.	.	.	.	.	.	.	.	.	.	8cc#\	dzicz	.
.	.	.	.	.	.	.	.	.	.	.	.	.	.	.	8cc#\	roz-	.
=92	=92	=92	=92	=92	=92	=92	=92	=92	=92	=92	=92	=92	=92	=92	=92	=92	=92
4AA\ 4A	4e/ 4a 4cc#X	.	1ryy	.	.	1ryy	.	.	1ryy	.	.	1ryy	.	.	8.cc#X\	-jad-	.
.	.	.	.	.	.	.	.	.	.	.	.	.	.	.	16cc#\	-ła	.
4r	4r	.	.	.	.	.	.	.	.	.	.	.	.	.	8.cc#\	de-	.
.	.	.	.	.	.	.	.	.	.	.	.	.	.	.	16cc#\	-pcząc	.
4FF#/ 4F#	4f#/ 4a 4dd	.	.	.	.	.	.	.	.	.	.	.	.	.	4.cc#\	go	.
4r	4r	.	.	.	.	.	.	.	.	.	.	.	.	.	.	.	.
.	.	.	.	.	.	.	.	.	.	.	.	.	.	.	8dd#X\	za-	.
=93	=93	=93	=93	=93	=93	=93	=93	=93	=93	=93	=93	=93	=93	=93	=93	=93	=93
2GG#X/ 2G#X	2d#X/ 2g#X 2b#X	.	1ryy	.	.	1ryy	.	.	1ryy	.	.	1ryy	.	.	2b#X\	-wo-	.
2r	2r	.	.	.	.	.	.	.	.	.	.	.	.	.	4b#\	-ła:	.
.	.	.	.	.	.	.	.	.	.	.	.	.	.	.	8r	.	.
.	.	.	.	.	.	.	.	.	.	.	.	.	.	.	8b#\	,,Niech	.
=94	=94	=94	=94	=94	=94	=94	=94	=94	=94	=94	=94	=94	=94	=94	=94	=94	=94
4CC#X/ 4C#X	4c#X/ 4e 4cc#X	.	1ryy	.	.	1ryy	.	.	1ryy	.	.	1ryy	.	.	4.cc#X\	tak	.
4r	4r	.	.	.	.	.	.	.	.	.	.	.	.	.	.	.	.
.	.	.	.	.	.	.	.	.	.	.	.	.	.	.	8cc#\	prze-	.
4AAA#X/ 4AA#X	4c#^/ 4e 4f# 4cc#	.	.	.	.	.	.	.	.	.	.	.	.	.	4dd#X\	-pad-	.
4r	4r	.	.	.	.	.	.	.	.	.	.	.	.	.	4ee\	-nie	.
!!LO:LB:g=original	!	!	!	!	!	!	!	!	!	!	!	!	!	!	!	!
=95	=95	=95	=95	=95	=95	=95	=95	=95	=95	=95	=95	=95	=95	=95	=95	=95	=95
4BBB/ 4BB	4B/ 4e 4g#X 4b	.	1ryy	.	.	1ryy	.	.	1ryy	.	.	1ryy	.	.	4.b\	pol-	.
4r	4r	.	.	.	.	.	.	.	.	.	.	.	.	.	.	.	.
.	.	.	.	.	.	.	.	.	.	.	.	.	.	.	8b\	-ski	.
!	!	!	!	!	!	!	!	!	!	!	!	!	!	!	!LO:TX:a:i:t=rall.	!	!
4BBB/ 4BB	4B/ 4d#X 4f# 4a	.	.	.	.	.	.	.	.	.	.	.	.	.	4cc\	bóg,	.
4r	4r	.	.	.	.	.	.	.	.	.	.	.	.	.	4b\	pan	.
=96	=96	=96	=96	=96	=96	=96	=96	=96	=96	=96	=96	=96	=96	=96	=96	=96	=96
!	!	!LO:DY:b	!	!	!	!	!	!	!	!	!	!	!	!	!	!	!
2.EE^/ 2.E	4B/ 4e 4gn	fp	1ryy	.	.	1ryy	.	.	1ryy	.	.	1ryy	.	.	4e/	świa-	.
!	!LO:TX:b:B:t=a tempo.	!	!	!	!	!	!	!	!	!	!	!	!	!	!	!	!
.	16a/LL	.	.	.	.	.	.	.	.	.	.	.	.	.	4e/	-ta!>>	.
.	16e/	.	.	.	.	.	.	.	.	.	.	.	.	.	.	.	.
.	16a/	.	.	.	.	.	.	.	.	.	.	.	.	.	.	.	.
.	16e/JJ	.	.	.	.	.	.	.	.	.	.	.	.	.	.	.	.
!	!	!	!	!	!	!	!	!	!	!	!	!	!	!	!LO:TX:a:B:t=a tempo.	!	!
.	16g/LL	.	.	.	.	.	.	.	.	.	.	.	.	.	2r	.	.
.	16e/	.	.	.	.	.	.	.	.	.	.	.	.	.	.	.	.
.	16g/	.	.	.	.	.	.	.	.	.	.	.	.	.	.	.	.
.	16e/JJ	.	.	.	.	.	.	.	.	.	.	.	.	.	.	.	.
4DDn/ 4Dn	16g/LL	.	.	.	.	.	.	.	.	.	.	.	.	.	.	.	.
.	16e/	.	.	.	.	.	.	.	.	.	.	.	.	.	.	.	.
.	16g/	.	.	.	.	.	.	.	.	.	.	.	.	.	.	.	.
.	16e/JJ	.	.	.	.	.	.	.	.	.	.	.	.	.	.	.	.
=97	=97	=97	=97	=97	=97	=97	=97	=97	=97	=97	=97	=97	=97	=97	=97	=97	=97
*	*^	*	*	*	*	*	*	*	*	*	*	*	*	*	*	*	*
2.CCn^/ 2.Cn	4ryy	16a\LL	.	1ryy	.	.	1ryy	.	.	1ryy	.	.	1ryy	.	.	1r	.	.
.	.	16e\	.	.	.	.	.	.	.	.	.	.	.	.	.	.	.	.
.	.	16a\	.	.	.	.	.	.	.	.	.	.	.	.	.	.	.	.
.	.	16e\JJ	.	.	.	.	.	.	.	.	.	.	.	.	.	.	.	.
.	2ee/	16ee\LL	.	.	.	.	.	.	.	.	.	.	.	.	.	.	.	.
.	.	16e\	.	.	.	.	.	.	.	.	.	.	.	.	.	.	.	.
.	.	16g\	.	.	.	.	.	.	.	.	.	.	.	.	.	.	.	.
.	.	16e\JJ	.	.	.	.	.	.	.	.	.	.	.	.	.	.	.	.
.	.	16g\LL	.	.	.	.	.	.	.	.	.	.	.	.	.	.	.	.
.	.	16e\	.	.	.	.	.	.	.	.	.	.	.	.	.	.	.	.
.	.	16g\	.	.	.	.	.	.	.	.	.	.	.	.	.	.	.	.
.	.	16e\JJ	.	.	.	.	.	.	.	.	.	.	.	.	.	.	.	.
4BBB/ 4BB	4ryy	16g\LL	.	.	.	.	.	.	.	.	.	.	.	.	.	.	.	.
.	.	16e\	.	.	.	.	.	.	.	.	.	.	.	.	.	.	.	.
.	.	16g\	.	.	.	.	.	.	.	.	.	.	.	.	.	.	.	.
.	.	16e\JJ	.	.	.	.	.	.	.	.	.	.	.	.	.	.	.	.
=98	=98	=98	=98	=98	=98	=98	=98	=98	=98	=98	=98	=98	=98	=98	=98	=98	=98	=98
2.AAA#X^/ 2.AA#X	4ryy	16g\LL	.	1ryy	.	.	1ryy	.	.	1ryy	.	.	1ryy	.	.	1r	.	.
.	.	16e\	.	.	.	.	.	.	.	.	.	.	.	.	.	.	.	.
.	.	16g\	.	.	.	.	.	.	.	.	.	.	.	.	.	.	.	.
.	.	16e\JJ	.	.	.	.	.	.	.	.	.	.	.	.	.	.	.	.
.	2ee/	16ee\LL	.	.	.	.	.	.	.	.	.	.	.	.	.	.	.	.
.	.	16e\	.	.	.	.	.	.	.	.	.	.	.	.	.	.	.	.
.	.	16g\	.	.	.	.	.	.	.	.	.	.	.	.	.	.	.	.
.	.	16e\JJ	.	.	.	.	.	.	.	.	.	.	.	.	.	.	.	.
.	.	16g\LL	.	.	.	.	.	.	.	.	.	.	.	.	.	.	.	.
.	.	16e\	.	.	.	.	.	.	.	.	.	.	.	.	.	.	.	.
.	.	16g\	.	.	.	.	.	.	.	.	.	.	.	.	.	.	.	.
.	.	16e\JJ	.	.	.	.	.	.	.	.	.	.	.	.	.	.	.	.
4BBB/ 4BB	4ryy	16g\LL	.	.	.	.	.	.	.	.	.	.	.	.	.	.	.	.
.	.	16e\	.	.	.	.	.	.	.	.	.	.	.	.	.	.	.	.
.	.	16g\	.	.	.	.	.	.	.	.	.	.	.	.	.	.	.	.
.	.	16e\JJ	.	.	.	.	.	.	.	.	.	.	.	.	.	.	.	.
!!LO:LB:g=original	!	!	!	!	!	!	!	!	!	!	!	!	!	!	!	!	!
=99	=99	=99	=99	=99	=99	=99	=99	=99	=99	=99	=99	=99	=99	=99	=99	=99	=99	=99
2.AAA^/ 2.AA	4ryy	16f#\LL	.	1ryy	.	.	1ryy	.	.	1ryy	.	.	1ryy	.	.	1ryy	.	.
.	.	16e\	.	.	.	.	.	.	.	.	.	.	.	.	.	.	.	.
.	.	16f#\	.	.	.	.	.	.	.	.	.	.	.	.	.	.	.	.
.	.	16e\JJ	.	.	.	.	.	.	.	.	.	.	.	.	.	.	.	.
.	2cc/	16cc\LL	.	.	.	.	.	.	.	.	.	.	.	.	.	.	.	.
.	.	16e\	.	.	.	.	.	.	.	.	.	.	.	.	.	.	.	.
.	.	16f#\	.	.	.	.	.	.	.	.	.	.	.	.	.	.	.	.
.	.	16e\JJ	.	.	.	.	.	.	.	.	.	.	.	.	.	.	.	.
!	!	!	!LO:DY:b	!	!	!	!	!	!	!	!	!	!	!	!	!	!	!
.	.	16f#\LL	p	.	.	.	.	.	.	.	.	.	.	.	.	.	.	.
.	.	16e\	.	.	.	.	.	.	.	.	.	.	.	.	.	.	.	.
.	.	16f#\	.	.	.	.	.	.	.	.	.	.	.	.	.	.	.	.
.	.	16e\JJ	.	.	.	.	.	.	.	.	.	.	.	.	.	.	.	.
4BBB/ 4BB	4ryy	16f#\LL	.	.	.	.	.	.	.	.	.	.	.	.	.	.	.	.
.	.	16d#X\	.	.	.	.	.	.	.	.	.	.	.	.	.	.	.	.
.	.	16f#\	.	.	.	.	.	.	.	.	.	.	.	.	.	.	.	.
.	.	16d#\JJ	.	.	.	.	.	.	.	.	.	.	.	.	.	.	.	.
*	*v	*v	*	*	*	*	*	*	*	*	*	*	*	*	*	*	*	*
=100	=100	=100	=100	=100	=100	=100	=100	=100	=100	=100	=100	=100	=100	=100	=100	=100	=100
!	!	!LO:DY:b	!	!	!	!	!	!	!	!	!	!	!	!	!	!	!
4EE/ 4E	4B/ 4e 4g	pp	1ryy	.	.	1ryy	.	.	1ryy	.	.	1ryy	.	.	1ryy	.	.
!	!LO:TX:a:t=Fl.	!	!	!	!	!	!	!	!	!	!	!	!	!	!	!	!
*	*Xtuplet	*	*	*	*	*	*	*	*	*	*	*	*	*	*	*	*
4r	(12ee'\L	.	.	.	.	.	.	.	.	.	.	.	.	.	.	.	.
.	12ee'\ 12gg	.	.	.	.	.	.	.	.	.	.	.	.	.	.	.	.
.	12gg'\J) 12bb	.	.	.	.	.	.	.	.	.	.	.	.	.	.	.	.
8r	2ee\ 2gg 2eee	.	.	.	.	.	.	.	.	.	.	.	.	.	.	.	.
!LO:TX:b:i:t=cello.	!	!	!	!	!	!	!	!	!	!	!	!	!	!	!	!	!
(8B\L	.	.	.	.	.	.	.	.	.	.	.	.	.	.	.	.	.
8F#\	.	.	.	.	.	.	.	.	.	.	.	.	.	.	.	.	.
8G\J	.	.	.	.	.	.	.	.	.	.	.	.	.	.	.	.	.
=101	=101	=101	=101	=101	=101	=101	=101	=101	=101	=101	=101	=101	=101	=101	=101	=101	=101
2E\)	8r	.	1ryy	.	.	1ryy	.	.	1ryy	.	.	1ryy	.	.	1ryy	.	.
.	(8ee'\L	.	.	.	.	.	.	.	.	.	.	.	.	.	.	.	.
.	8ee'\ 8gg	.	.	.	.	.	.	.	.	.	.	.	.	.	.	.	.
.	8gg'\J) 8bb	.	.	.	.	.	.	.	.	.	.	.	.	.	.	.	.
8r	2ee\ 2gg 2eee	.	.	.	.	.	.	.	.	.	.	.	.	.	.	.	.
(8c\L	.	.	.	.	.	.	.	.	.	.	.	.	.	.	.	.	.
8F#\	.	.	.	.	.	.	.	.	.	.	.	.	.	.	.	.	.
8G\J	.	.	.	.	.	.	.	.	.	.	.	.	.	.	.	.	.
=102	=102	=102	=102	=102	=102	=102	=102	=102	=102	=102	=102	=102	=102	=102	=102	=102	=102
2E\)	8r	.	1ryy	.	.	1ryy	.	.	1ryy	.	.	1ryy	.	.	1ryy	.	.
.	(8ee'\L	.	.	.	.	.	.	.	.	.	.	.	.	.	.	.	.
.	8ee'\ 8gg	.	.	.	.	.	.	.	.	.	.	.	.	.	.	.	.
.	8ee'\J) 8gg 8ccc#X	.	.	.	.	.	.	.	.	.	.	.	.	.	.	.	.
8r	2ee\ 2gg 2eee	.	.	.	.	.	.	.	.	.	.	.	.	.	.	.	.
(8c#X\L	.	.	.	.	.	.	.	.	.	.	.	.	.	.	.	.	.
8G#X\	.	.	.	.	.	.	.	.	.	.	.	.	.	.	.	.	.
8A\J	.	.	.	.	.	.	.	.	.	.	.	.	.	.	.	.	.
=103	=103	=103	=103	=103	=103	=103	=103	=103	=103	=103	=103	=103	=103	=103	=103	=103	=103
[2D\)	8r	.	1ryy	.	.	1ryy	.	.	1ryy	.	.	1ryy	.	.	1ryy	.	.
!	!	!LO:DY:b	!	!	!	!	!	!	!	!	!	!	!	!	!	!	!
.	(8ff#'\L	pp	.	.	.	.	.	.	.	.	.	.	.	.	.	.	.
.	8ff#'\ 8aa	.	.	.	.	.	.	.	.	.	.	.	.	.	.	.	.
.	8ff#'\J) 8aa 8ddd	.	.	.	.	.	.	.	.	.	.	.	.	.	.	.	.
8D\L]	[2ff#\ [2aa [2fff#	.	.	.	.	.	.	.	.	.	.	.	.	.	.	.	.
(8d\	.	.	.	.	.	.	.	.	.	.	.	.	.	.	.	.	.
8F#\	.	.	.	.	.	.	.	.	.	.	.	.	.	.	.	.	.
8A\J	.	.	.	.	.	.	.	.	.	.	.	.	.	.	.	.	.
=104	=104	=104	=104	=104	=104	=104	=104	=104	=104	=104	=104	=104	=104	=104	=104	=104	=104
2D;\)	2ff#;\] 2aa] 2fff#]	.	1ryy	.	.	1ryy	.	.	1ryy	.	.	1ryy	.	.	1ryy	.	.
2r	2r	.	.	.	.	.	.	.	.	.	.	.	.	.	.	.	.
==	==	==	==	==	==	==	==	==	==	==	==	==	==	==	==	==	==
*-	*-	*-	*-	*-	*-	*-	*-	*-	*-	*-	*-	*-	*-	*-	*-	*-	*-
!!!system-decoration: [(s1,s2,s3,s4,s5)]{s6,s7}
!!!RDF**kern: > = above
!!!RDF**kern: < = below
!!!ENC: Andrzej Gręziak
!!!END: 2022-02-25
!!!AIN: 1 alto 1 bass 2 piano 1 soprn 1 tenor 1 vox
!!!ENC: Natalia Wrzos
!!!END: 2022-03-01
